-----BEGIN PGP PUBLIC KEY BLOCK-----

xscKBmqhrtweAAAHwDkyH1CdvgPDbvrcqOViVzbM0FDKdh6rzvl5QL7mv9ZLNgf5
B652+uNmy8v+iByys4hwcPSjZGuqo0/w8PA9V+4tVnGfg5L1P14uRKT4mOBR3w+G
3QchNdL4Y+PzFWAhITg3Ym901PJsJ+3yKmwsjHWwM83JuDUO5+/rRGZbqxw6g9Qw
+0Lqz0iX+GuEjt7bILlrhB10syE2HNydF3kpIoZ+Dr7oNLTpTbyB1vSzWcl5yXF+
5iiX+8xV39PxdmXAAqNOVHmz5+NZMJC69T+VgM2hnV7S04qsKBmPMrUVs3Lwu2xz
yfsBb6XDPo/1z59wfZVJLUaqVHa/VQPZng6yM7jPSNCcyFCFbec02DAL7xnmkGvx
Z4TMntVb11qjbSKp+ZIOSquUWOArMpqgSjyi5+c3I0Ii4ygLoEDyiXCaderbCeye
GWeKvgy+ewDUKLWrVm39i2OI9i+SYZGjUyDefoXyfApsNMEwER8gRqiOleWyBlaT
im36dn32Oao9vDm6E2UryB8opRaktk+tsQbkHMfpFaP2dagheWkoh7nee82gjFmu
CKWnUH35lujHdPWCTa4w6OZa/GNrInrh2oioyc+dwPiSjzezGvyJxlLK865D3+bm
oV4aXyj38JRRXI3TiI6ouLfXQ/YCdEw4RAJUbZFxqREMNSLhaHfOLfmxAWgDPlri
BdEy00SmFjAY57yOsZ+ij4L9haff4plBR+AcY+FRr1kUN3kcTW5KHht7wZt2EgDM
kGFmo8R+PUse5uGPLMtTJ63syw9SnbyqzDLm3wmEBFWcJU68LQsdVuuGuZ2dEb/v
x5ouicyDOFA8AMeJIKdYfJI+lfENue2SEQg019nSDpvHW0FM+HMLhH+LbvxPmtUA
gym7aLxSM0QXywfjoMdUKmivflDRvwzRcJERwLjAz0k5h/anoFoHmsjFQgZN5yHq
lhsZafKLWywJxQig5/lpcfcVKajIhQLmI+iybv1sFJ/3f/ayvv7cjotGy3rrOmil
w9Xhun5uX8zuHH+cpyJwikNL0kQip6uh4PauJKfrXRjFnOERG+fCnWbwgiouYaR/
YySQrIn9TUwvuSwmskUlxTZS0u9eBF1mfd/8+EhkyUBkI5V6zQs/QXwF0WKSmY6Q
nvp9oFPtWhbI+demjqwlwyYNZYm9ms8mYqUbFKWA6sE0iTuDclKN3JG63bx+m1dy
+ga+40wrg7KMYhmH4G//lBHaXFztCHFpn+IUD++I0XHibU+xP27J0z3fECnsi7y1
2Pp+GmU9c9bmkw+uwhi5yU5LU9JBa2J2PqSxJoChdtg1dJLa7Jq9PJQ//Wb4M0OK
mWfXMaHyTkHBfz9LHAfsj+IVtC7SmJR7xnk9y/uonB+42/L+1cpAcU3InJPeYZ+S
4pvuQcy995nl8GppDnRDnkBpaqTO9qPzz+X1MN0SuR4LMSxxDBuyrav0KzyCfe6C
kFA8kBF9ZmsWDVjEZ41+Ld9Q18PpjQ/OjExXsQo1I/XRFcpYQycDzD7GAUmGvpqc
rmecBpzhdxuuo1YLJC0qwl/aiq0V5nx3PfeBfhtnQAksgAJhdVui75d6OVcQO5RO
x8NzlTb/nksswj9+HWskrHzks0q4EAA/xAlz12CXqvYXCwvs2LeFQVjYubZ7twnX
KCWoM5uMuj/TTVmkJNT/XB8FWvcvgbIOIlgRWVUGNcmiNMCmg76TbM/tDejlF/FL
255CVLyYO7PGpKjcCOC4conRN5MyUBJbhc3e7D07M754SXs19CDNPaCrZER8NY7S
mQjv84PWYBMwB1jI5J7/pC+YektBSR70KcyGYVIE5y+vdYa6oMZnG1gKtHvcRuD+
7Zzzgs7QbhuIsiRwGa/VJ/GGcRBOk64Qoq9LO/rIqGn6BFXIqqdIrbfgwKFgqEo3
zvFgblSlF7QIe8zHrk8WG2DFe9SEp9HFnPfW+I9IcGzEqJ6hNzn6rtCych7X4RhO
LmWho7oFqlZ47lqeGBviqBxIzd02ZH2TfusXQwYnT2STOKEdzTFREvHvxvVBLioL
d9iTVu0fDESAR01JUVAv4brL0w9OUkI3R6AwDEpGAnj8ojTELrQXLXiHCitzbOYj
hajIMv40Mxrhu8RU849vg5Sx9damzp2wnlo3wFsi2nM+1iUlLU0NG9+BVCRCgZ9i
J1AWjvE+QXMYBkYdjPbGhbIgmwpIxHLCRwqIOO6vetEHN3rJIbMkawPf3vjvDoJG
Vu7IdBvhbnYnhd0WCzi5sUpnCwW5vWe6jfBQ5aMauB6lub4nsJXViqDP28G2r9Vi
fn508essa2nYUpiytkExMSKuDIMyyxbvKuH4XVm8Wjupkc+IQ8dlnCLXGIVMBQGp
AsWont6k/I86w9InEnNGwe9oKu5gL/ifm1GosR/CemgsteDeJww/UxR4/6N76bGl
fKR7r5E++oBC432RESN4bVyNF74iLSSnAblU1a/bqepwzWPrPDPOtD5NBc9TfRkB
GSe0gwiyiuJW1C3M2PCxl1tB5pbmJrW/2U2tkeMUbqrFrYqIh/9024amz507mWsB
Oh/sN0aoZUHwsgRM3GMzV/YrOGcVgOVi3FhZhb2OqTsOn/dYXYgtt7MtylP9Rhnk
DyxNP5ob/+u885hE9fJe0feq2rj/9L5w03gvPkjCzNkGHx4KAAAAPQWCaqGu3AWJ
BaSPvQMLCQcDFQoIApsBAh4JIiEGHf/YQuY67OTtIfqR2c06e76bZuNj5PmYJv1Q
hRThDYcAAAAACF0gsuHJlRHkpsnxQcfSwwT6G0D/m0N2d8A0dHS4QMXH4mqYlwMS
dE2VhVudqjx2G4VWBFWpIw3nAEcX0K2423s78SmxdijaQXtsvYmcN9Z8pu8pUpW7
TmlBJZ4h+KBOSoAJXUwy2aMtLFOgUT6yWSrKpGnudyxcRP9D6VLZJ/z6Q9yqhGOD
SrjgyHHO8Co+jPhs896KROt1eURojoACzPGiTmo0bKXWNEZfby+gzMI3ucoS6kXR
Cc9Gv3vV81KkpKJO+1xqn0pJqI5YbJTLO7XL386omYf4A9cmFlqgPdXXF/1AkQDE
o8z61haZu9yCHnmbCn94qmTPiKdHoN1V6lcxt3E5oUA8Fa/U7I38bqvG+xhIT9KQ
bMMmkgMGf9s2FwVS0OplVfu2Xeu++p6BytshpFkNpUuj3JrQ0WVuO2Q9/bq0IywG
2bj5C2asvYfuizrT+V6VB3fq/j96wYXaCLrhM01v9XmalyEVgvLfUhUyeN7myWIu
YZYQdO3Vv1F0X4hCgIWvLMVjqpkD3YzzZaC25tiUiDkmmgEyQDteyWsJi4nwIQI3
8m3X8PPX0d8yScK3FhYoO1Q03pam/sOOFa9VO/qxWJFxRQm4rJJ4mfZV3u5lsxXH
ov973RDM0ISz316oWeRsfby7um8UHWqbA2IbWldgXoGy49jj69gSFP/FULgM3dj7
v1lVKkci/hl8D7guyAvlOsCzzU1H2T1hp1BWGV7gNMRBnC9DzaNehqJXABZP9tgk
uq9+/znyIZaBtVR53pMGSyDLNRpKCl8/Im9wDnUpyMKG/+7hywU8CBUtwM3X8uS3
ijuntW56Ykuch/wC9BfHYfk/7snXvPGYnnKhSXIgVzFo2ySfbzKnBqtxWE/qXfGd
Omrxkuy+xjOK1xMeZpkDato36uY/X3YqNDXWfkCQCKFjPxc80w23MZwV+J6kLSrP
UMw1QA8QYeFT3E+PgpgCB5R13O0ikaeidZ/fMpLZDTyBY9NfqYLYaKBDx0J5LBDw
MFufo5hBhh2XmwqV0Ny/iyVZuhARoSprNadjm1DIYi4mp+H/zdEO+TEpsyfTKx9H
PF881ew4Dm1Zn5sItY/jbEwZOA+er9kzxXhTuP/sInsn0Q5+b1b5wI/OSZmwSoJ2
SMThe5usxhaKH6iIyT83TTupPzGy5AOmsKN5TUg6xw+0sKwu17H8lodr/Kl5Btn3
DZWstoJsw0xHAQR2FDgfDhEJppLuh+N0D3yWhiBSxyNqictiTjoKywheL+uDW9Dy
Q6Rezwp4PtoZZ19xbAj040ZyN1RRj2HmbfS0qQ32K6G2OFaSz6eHbrP/+K2mzM02
YoLKpAdaP+wmU0M7or4zaioc5EmVSJfEu8KaHNbjupcVLriChLpqTLuGQL8DM7TR
eIUW9luxGbFwdMB79ANtW6Fh2QrTjMTyC97utMzMDd1Vv3JTv+hAjsKFmkzxikH5
Yki6MPGSVKvlybkvcffovVL8tno58hR80zeklbhYj6RYgwJCvsvSq46ffYjYHcKP
OOXqEImqlRP7TlKXQRefD4jKTrzzPZy8ZXGxN+jMHS1Z5AkPN0PhMgZXI9kvTHAr
nZwa68/MEwaJFIden/OGUWU+xdiJzPTx82RuwleGxRAH5FFOR5+RBbB8FJHM5z+u
QwKIRySX0E6/Jeu1BFTfBsRKOLnmrHSEO+5TmvZOx9+Z8nu+a1WN7sMaEbfdCZla
aMVdnXeCDG/gm4IMkJ+7wrJTnvAoa0AXFl1XbzRkqg+4mbiF3Ui7eo7EMC9t+auZ
Jn5MFf7hRcdVmIM0kzkmkyV8Drz0Q14kVajXzwmYBQ0cESCX7xBwGds1SU/W65LS
cOgR40c9Me291UliXTpkWGNZQo1HiKqslufonZNOcKFMcYDAlCKkwFxWhZGmwMFA
wOIHMYJ0jyQFgOztQ6TuTFXnSpzbNqQQNgcPRSavXWYxnPRI9ggsLKJbw+I1kleO
5TYzthRctNEQnUa11SMnsOm197DrfVGZ/5dUKyDNCsF2y34gWEHFXS5fgrjwjXZO
La7uMYj7Je3ymkril1HQGJWcHl30rs93yYfaHiHXjEzeXK9SZduJzoTUQaWxppdg
9BnJv/u8GN8aSgBm+IMh+BhpKMp9rzPUK/iy1Ii5k38zvuMoKZsh6slTRyJwX++t
3AtLcF6rnwTqbpvxroM2W5HOWW5yNUZCZ6ayu2JJSUh0sKj6R7kxntTVSLDLCmz0
GEHeJqEHolLn2xiqi5wjxi3EgwI+IxG2+9VQAs9eTBFWoxknLcyRSr90TtyclOH8
F0C9aZJPYSLWgRZMBFCVcXyYQQYN0zQyEmrKOlbTqFNZsZBeUUpoPO084j4rcYh3
eDUn1mARGyk0qrubKem17jX2LwaJB+g99tezuj5C7SoUpQmcRMFvF4M0HhmgARL5
mhdTRC4awKmAhxQPmQhx9v4dSapumfky7rWgiFp3h2CRaitHwvHbJoXAJYJG0693
ChY6msiGN4riuELquXrxg8SNBVsJWGEQcUSbId7+VLkFdi6sbCQ4hZ708xdj1rAG
eKkgllxLxZqaO1xF8XIQ0KFnw/hbomdcIoyvqFLPckVQ5mdfZuxbzahhOHmnfazM
W+MW8hKq1On8PCWbZAQBJgA3ZFdQYfMCXY5Ly6rjF9lV7IPENuk24IcnqmbE2QfT
ekCGdAy2mw1mmnPrbfDfCIcz/zppXP9sljDL3tEfz+SiTUAY8VNLtFFN1XFa1qsY
y3MTZDgJuz4g0GFepkp/hjZcL0wFOHTccHDdT0dEONAJ1xFU7ZW7WMH00F4CNy/T
lVlKFVgIq6slgzrtYuEU06Cwa4A5Cb3sVaVFnk2xs/qyvHFflSoSVSsAmJjjHcRt
Y5ywwSLMVgJ23HJ+gKWcYnBTorTGlTQ2HhbyR//Tn1nkQA9xSeMBcBPR7eG8gAhY
RXc0XtxsS/1XUx/pgNY3k5JBmLTGLDin+QhrNW+9m4qmgHQqS3JTOuOX1qKcY9MJ
16/A4OfwQL2Ji3jsgvoEqVw5gCTUjhX1h8z2TyqblVasWSUQhX4IBDrDPnWXvKDB
12NCO32jxwH3OyKMx/rs9aRaZAYNi0+nzicqRAzYD1Xljl0r3eqisvfRMzWDuKBX
rzTdabmtpBI76/ZU8nMty9oX3pUf2P3WBpDcbtYDSIWNpxa7gelvSzw2Kgizknoc
4I9h7MzzkL9Gm02axI8DacnjJZ1reImoCIeWJmJqprbgAzZ5mRNgfWvLnRTqwHue
l30JoiEL6Zkxu56twDm9Mq3v+MDdsucryXOrahaAhwkOlAV4BQVKtsqfYlOqYs1H
lGYN6w9iy6xDNX3zhy6Jci1y94IFbPUPUQ/r8u2XgTaLwusKyQBgIe+Fdwhe1qCa
Rf5tvSOwTpFn9vZnWCFkR9euMJnnrlDXM81dIZ2e4XBK69J2UR/pcKSHZ0coEILG
bXMZOyYQpgklB7zN+HvR4hqCViPYQBLLy9cZj2mobzpy+OE2qM8sBIRfftsRB7bj
Ugs3YXjAff0U6gXZmU5aBoRtgppwwbXPDvUfra3rFzht77eTBcDSWS4w2gZOih3R
+Ftp8BVaKQq7A81i3NpOQphZMcotBgRHqzL65pZ5tisJ6RmApaylon/lKtE17gnk
4/DOwe49EhnGtnA8/wWiHpJLLJEJMfWGMU221YIxlIaaAkfcPJARbG6xDWDaogdA
7kg5AErfqB/xyGphOB3BHVmClTAbHBa0cGNrm8jG8dztfq/kpIbJoelQWuJ5YvIz
ykoPBwZ0Un4eiF1NIUZO5xGY2Qo9ob/eKy5DSptabVM2b/MAwmZDONqrX73IfC4+
bLgYl5HsP8FRjVhh7zdWfjBTYI7HkYKpkk7XOvC4cqGtbZjb45WRlhJseRHK8tNi
qkv5Pl1baKlom+CFynXChsvrSMoiRPc+dRQj/LDKTqNBnzRvmCehwlpPPddhY7ZS
dvJok6E/397i7vFdNQhamcIZeiPvsw8HBRqWRSl9gQHTFci2Z42wKy4VcnzykcTh
4Ke3FYLqC4adufzYQpu/GtHAuS7V9hqTLHVVwiCHgKIdVWYRas1YZA1MQhiRINcy
3gAupOusAxzf0HL83/GUYygL5VUMM3tB8EiNv0MPE8GJHGqOTeirHv2VXCZCwTSW
5xx3fNzQve24Sd9Vdrh2m+sP3IWu/NL+cu+OZiiEVT8CbqY2J2y8AQV/530Kvpna
B+DcrHVtd8LWQfdB3nqJahYqiXBjEjyr8/5SZ8BMXxYHNacgHth08cq9LLdAVMw9
QQPqyFlZyVqxgkfyBONcA73t9i//iwggZWv+GY3Ftwk54ZstDmqADvRa+ousVqN7
G6nLjDLSu1ccGWwV5JJTh/I7qwoKOqadPSOAHcV6hFm9oiNEVGaCwTV/kotTQ65/
OlCesA9mve69UiXOXGVt4YcWuSRADCk6OGZDUamPZ4x6id4S4I+xfHGI4MKCtLka
V2Z6jcPR9EZWr7hDaQgXq9Bi0OH4AAAAAAAAAAAAAAAAAAAAAAAAAAAAAAAAAAAA
AAAAAwsPERUZzRE8ZGV2ZWxAb2xiYXQubmV0PsLM2QYTHgoAAAA9BYJqobDGBYkF
pI+9AwsJBwMVCggCmwECHgkiIQYd/9hC5jrs5O0h+pHZzTp7vptm42Pk+Zgm/VCF
FOENhwAAAACtMCCfrCms8qifUdrhOfH4Gl1ljQ5y/ne5/bm1NrfuaAyg2gXsGmQF
WLx1URmOUDqZw/A9X+8k/DZ5DLMaq3msG2n3r/sdtbFq2vYzpeB0TIXmTtTTUEac
fYs/nlWvV+LFXwVEtgFXiQQPUhnRg36oZ0QGAyBjGXqtB0/WwVZgm7oDOX93Ihu3
f87sRs+c9Ror3hIy8EdgGVdEpDtJk007TS1LXN5zjphZSuNGL/PE55FF1dbWfsx7
YD3tWAkcx7X86fWff2VcNcxVkzG9TA9kDuV6H/RnmEZH/NiC28UjanTDrDZXzFKB
o0/tFpJRWbix1M9kChw1cZMI+h3Ba4kwZR8N01o/LfRFQJvgzCEGnTygBJgH/DlY
fyed1EIcig9czw5O7wmLC5I/GN6vQ6VzL9qa2TqNiNlOVkOy8SFwT/x5nArOYLNv
zvcvSIJel0LKgqwkNkoMa0gVkXEnyRxbbO95GjdTXwevDfAC2OGj+cq58VbfGiuq
V5wdjwHrDYu67tcrzcr/XDCKQVmrGENq7BeDgQ/tQdwhxw0w1bBfvGMO0hnoTpUg
H9gD+EaD+nBwyrTfPpVQD4zbdhiw67NtzIgYQA2hWNq2vxCpBcNeK+jJt8zilHnL
jyEY4UDoU6OE2jqbod/RJXsiZtvWTo4NmtF4YYdQogJLQmH1qvpjoYAOoeCes16j
HWyvx90jw+kswPM2VDcWic5pyrZLggo8SMWMZWCh9WkpmpGCMIJe+QfCyLm/ZZm+
PprF2Ar0pthvz45DT3zLhqTpmLyzJZupKn7z99txdSmEBd63H2lxxEIZmxo6A05T
F9Iu/UPdyGPfau5rz4nk8n473eSmTV0UCLoIAbj6vd7bkLi6WCEWu5MraTxXNVQW
yXZ88lFklFeozkWpa1HMf8J/fNW0oPcgiJ2tY79NrPJbeFe0qk4k0CXy9Y5p1Xwp
oxY1eeL+WHNgdq8PoNnhpT/yWyZpFx7CMwSrrSwxCUd+7dkTHZWiKlBmj5MrMSnR
Gws2q5B8HjVGROUEIWZZ+D9wKrYzoy57S9YkQ2huWr9gjgLAgFY8vYhy7mz+tUwF
qNNHiBugEN8GmOl3EnGLpK9DmL2GJO3GujO8or1HaB9yDdoIoCes+yyiQV/vHf0T
J5BUixH222MmyrhLrLzeMGiXv/uhI8CtPcXmCJWehVjqUnXa7jDgOAw7ZNFNoUwb
momGStadiPAFSS6456TpzbXg95N0G03yQNUw4qsE6pbx5vwXrihR14XG016JaUaO
BrHL+fDJE5/tmJI6kZTwP7ztyiK6YAT7k7pV4tfVpnaf1DKd819aNkgAEm5wJQbH
vBMB8AE9X1oC+Rf9eB7zHEEoKd9bzzfnh7qhBlbN9DRfM+QSyGcwHJwpLPud6CA0
Ol6suP1/8M3Rh/ZXoWR/RPu2PnzOAuJurubZbYAhxe2KppzizNuZKCnkBi+P35oe
h4dQ+H8eqGLfF/400jVpJYZgpI60S8HxsCmJ9nHbSFQilJRzFCYTDEucYuWzfVKu
eXww7jIiG+534F+VXnXb9snRT/U+H1qeq9CyT1vmomTdakoBWtwTq1wWnXdA4mMd
wimq/MIRtAYTEHxKFS9g68cIdGToXF+lwBybWO7Lj+t7090rbtzQSq+Xwd7U3zQI
VksmUF+u923NiO5fMGU9YMY1o1AyY6XsyhiPhfdwE1KkYpllFLUtiqRIvQjnzOsQ
4+sO8PUnPgu2j7PkKOWzKIUZrAc0nh+RSNaBOS2rI2f1nuGgML5V6YEzENM9dt61
RJPFLZmeLAAWywh/xLAMG4XEvXPPskRbyl0zOMo16OOn0UsNkvv6oD1bnODKmEYu
YBthi7QgriHxUZF+Z2NTbJjpgc/xo3BGpVHFlz3Qay9gmJ1Ycj69oRPgvueFSr0L
e2npWP6o84XavZA+PA+RYbEJP3dDZWukz/5qRd6TGUoHkuuBAAtA+P1I3jF5h0OX
kweW6er7XuT36+4lAmCp44BHc61O0WqECV7Cz6s3iUXbGIJoOMt08QR9eU5pC885
6ZZD2/EZjQa1kdWOKmZRVqc/67NVXosui0ILDyY2asWrzumQ0mF8NRQwIByh1LNh
/CJYg1mCI3OrgtXbzb93saB4XBKZgAFQG+c4SRtKrJnLX+fUP/Nr+SzTWzpuPczY
QnwID8YNfvgBcQmTUlKbmJ+X+PoYPqy6Pahi0bTz77zo70wrrAUI9COBkbQpa+oI
vxuHENuHqeNJqhj0geExchwJhgCRgWjE148YYaJatjanxTATMqgSrdxKl0ugM5TR
p4qVdcX9SnDdGQkSwBR45wy9raXqiNIQFY32HM2551aF/xG2keeAGWRdIMxjj7zn
e5tfgf7Hh5tfiYmK2Qnu3Xgtd5Jd0xyzNxOajgXhs44/HXrsYqB4rAajm0GOAS9W
9VdBhY+Bdbx1DQc0L2K86l8m0v1N3BI8IdC7X7wnB7iLXVW14NEbqpqoMc2yCWGJ
EXJ4Bt/sG/hQD0Ew/g0+TPYtbbRaxN/YApBECNAUHlNgIu/hROJTZkaZObQ1g21f
ukfEeLOfOXQqEeRLsn+dMVmlghmPaY6UMAIoz4xW35Hj1v+uwvuR3o2W7nmHiOs0
53LrGExxVxL1wA4UR7dhA6HHrMX7vtf8i3td4nv2PCIAaEpu8WWqKSS0L2LtLDra
5NLv+oyuyhcnF3RW3ErOX0BxpoEjUMU6+7ZlqRsvMypSnqx1UwU3qeQJC+544Hfd
LRLfosqX+CFq/HC4dgjhrwVQQWCENXbH7bOUoR3VyPkLTbeaJ8TDdxLFoIFSohNN
YPNzIl+KoG+pD/Gz7SkqHgsS6fYNRB64AwqtWlvCgKf2q3/HAubrpOZOLuyy/OGg
dfJpvxTlKMzT/9FPhO5tX022JCt5Ar7KbH1+AhTobJVYNECN5Kn0LHTNnBAH+SUe
YTv9BNDUu7RJB4jstIGV4vO0Kj4oFJ17sV8K3ZXWSneoI9prTiH6iPA6NBHZ1pc8
JAie0gS320bpZdI9PU13h8b/utIae3wVLD27cy05vOe9WhhkjAGrc+IKd3ELAk68
JIqkEzLUQosFJh4o4XtyE7c+LzLafCglkv5AI6BAOpRM1i4G8VeIklj8tsrh4uUd
TxHG5Xu4w7GGawfrzyPL34fT1Qxg3kVWCDgKB5/xYBjyUIgsgB0SMhw0Trzpo6qG
ERNS6zdEP3a5gb0OH1CJ5j9yeTF9D4J3Ke5xTVEWB4hgGwqgs9thAWde4F/9qh2z
X+ZfW5rMA+oFszOx4vjV4i0Ibbdh5Mdu2ZhXQhJa1cNj8wNyZTYlUbd9Moj06fui
pUHf+AAnFQAm8Ecj3q9CGQEG/WeXl/H3OQpW/GTHAkCXaScTk95P4l8R3MoyOIY1
/C5JR33HPYpDdJeF4RwCRtZ2QnimzANF9iISPlugkJFpBdIClBx/En/SfV811XfT
Os4iu7Wls3jWXQ+gSBXMYTnxfYcsRYasuSFbl3+exdOM9ele4FVgs0onxA6S02F9
k7FPPBv1ZFlMvWbMfgniwI9XIuTXvzW8EM5ZwHBjmOnQFx1n1xD2dHp+/7jGq+YA
ECBIltMwcJHokOWAeU901pcgeZWP/ONjgfZKaMM48zz4uLSS5mHtr1QIdULRH4UC
BzdZrDHh82KWpo/7VoOzWeyRCbhiAP5hyuFTJC+abu96cuDU9F1ql9HMAxfQL/DS
2c1MWFqTd8T13e3TD1VL/9+WFH8jiJHyRu/FyA7Re5gVTKYfh5EeBcRvk1vcSGmz
vbQvYeMuYYQK5RcceLHEyrVfdyPu5nFK00/WipeIKNmo7qtiWgvC+ANjjKrD/VN4
2Kyp6iInsv2IUVk5oXsbT0Han8mfsDkDUtAioEKDOcr7W07H+N1PN1o+w52kBhDl
FemvKeO5D2dU+3MRG9omnCKZhkUTFHilIIdkTDCnBfG7mmnz/6OCpKj/0RR4Hp1S
aNBxR/AsfLOFoF0iTfSHfnhtFYUJ+xlcgiGd4kxPSgA8zrNpLW1fRMGfBsqlpT9/
Hxg8UWBZLG1WgIcWWkRGKobxLP25sD8fOHe8NDm5ATEcDKeBjzgmQIgCMD/KuM4A
3DpUZzQzq7hk2C6b6Zy9psVo+tKWsLrUwuY45V5elMboWD+XrzOb5P7Qe1vUV0lk
QpBGDVq8h1jCHQ8hyO5xt8+AqkCmQS4gy8REVTvN09mj89m6DxOhk8y14wje2hKi
MXGShXW5GcCs5nFdMjd7wMoVnl/2o/AMwIFygY5hI+H4ESRJ1iY868lzmIO2q9wb
WjQIzq6LBC8Ra+VHXa6PUecf+oysWf+ymB4foT0imAjf1qrzNXxGR9gme1C4cie2
j0RlqHZwYTvYrhNgQGgDsGm+7Uxx7NnGcu78+l/6cAX6dH6Ogi4QGhPF/9cBjoQo
H6Cc9kV177Vz/RL9O3V+Ugd4tLvCl3x7IoVE4nXATfsXCWluFUs3/4CBTAs1obHw
+xknL2d5xfN0kpSoxNbjFzlccLjgAy1UXZjJ9P9VYXF3fAAAAAAAAAAAAAAAAAAA
AAAGDRQaIifNGTxsdWMuc2FyenluaWVjQGdtYWlsLmNvbT7CzNkGEx4KAAAAPQWC
aqGw9QWJBaSPvQMLCQcDFQoIApsBAh4JIiEGHf/YQuY67OTtIfqR2c06e76bZuNj
5PmYJv1QhRThDYcAAAAAJmEg5sGXDPBg5VpIOF+Y15O8KCJ7PxF+N1ByOtaiSU79
awMrMLtsFZW3nZ2DEWT6oRVMwCj8c28wE/GIlaZoEvWYt3yzOxb5roHM7jg09p6B
GIVNpFcuvyaD7wznvV8WHHIGJAXYXlKDqb0DHyaCwpv0FtjD1R07uztK+uUu+wTM
InzSlkZV8ROK9yw/vtG6bsXXx3eRQ+CgS3mtzgZg4aIn8NeDtvDlT3ykdRLqptAu
787rKN668PYQwa+anh6TVVhlcTy9U/IYdqExrYv4lgfvfID10u/frMsPppeYUeSs
p/k/lCB60Ar0yERzpgMDwQkACI6o9rvc5f7j4Z2E7g4CZjnbTdoa6vNhEhsBRo5K
PzBErDvTsABGSZQnzuaMBvJRHx4JqaXZlXh+8B1hMm3KtyFuAFXci4d7+seNKeXN
xje7YcBB3guLofv1qGrGA0W65vgCizpecbGBS9fuAfS/gLiSBTxtf0GEqxbKWRx7
3yIPvM0mXJKuVTg9Ecr2yRv/lR7Z0SxbQNT1YqFOXEQ2xJKI+ziaz5kt0BhbcEWE
uDDyCCtfkP988/v5x0akTVfHm3P93sbHzpWHuLYECDHHGYFrskbzhUhKQ4gpuozM
BjYyQC+508dBHNttYUHorKfLb5U8YqvW0mLtlO9F/T8QpvcPPDq8XqlMhw1L28Kb
5pXSKvEUVPnKJanM+CVEUUBAM99cJ3sv73ufq6uWwhnyiC/8AayLI9brcy+psF+X
hxDTaoyKraqQaXR/PEcU76h/yJU18/+xe0Jah8KvjCs6cZaY7P4W+0zmE6V56C4Q
unqtWII4sAg7SOKZSOVdv8sy9tR4C28C95xK0HV1e0NZ8CnZ64cMGSCR877Pw6oi
bXHbgp5Up1VqqIeBZnUY+rOmr70vY3Gor8L6K1DX9+yHQe83lTF0sF2UZI1L7pjX
7xp1jhpu2xwOoF2SnbpYMgqhLyhcQiIdrO8NhgfC37ANo+qhmnJhwcevTWJvpQSG
hbpjZQmXj8MjtZsS9RWRRrWRXYtDCG6g64W5OY3t7glP2iYVI9lMdP6eYp3W5FTB
BmZyxHY81UHhPPU6qHbsM4pXRWS87yBwFeVWO39UN/ga7auuGXPWp+l160SGqn64
4SkoQuMoI8vLtofzAth3RqT8JWkBeI2Cb7AGJoDhI8Y9IlNwAed6mmYA8yayUyMu
jtGvZGyeEYrB830B3GzDawZx8l4KAN1eg72FcvsZ483vQE/urUNoL1iFoZg5MI6V
OSxNDQKC2uy0yRsmA/ezIa1BO2fhh64O7bmIyY2b+3OFG+Y1TWHohfcR2c8WcfU9
64ehUQB2puJE3KG2zAYiK8bcpQ1xUbhItIuwFk538a9AsfQcQneqR+uuwxCgR/at
Ik/heDUlk1mlKSjMWOYlnfUwPYK8xkSxoJAoQv8IoT/DPADs/1VhkqwPgT4TYgid
g11dFtWL8oGqrAZe0NmxzirB/9KSj0jU5xhtfgwXDREpzzsyoAypdRB33tP0HpPd
2FT0HNcv5Ay0/+bwD9w/BKl4B2fIj2Q0DVcRWyPeYK2kAjq3ggmumNqui2vt6Huf
IfjcQr0HTTtFZH5OQw92qHCKBHxcodYU02FjDDOuqX6segnXfcpWi2BH08aZUIqv
uPXw8UukvtQekfnqYIHpzuVe9uHvL36UJc2O5M2T1mKFFACKkOXAomXQSkvRrQ+3
p8r2h4IuWKIDrfJAx/4DMcRB7WtWVpdRS8yvvt6C2iCtohhy+DF4wSoNsO3Ag7YH
auXYlx+wl5sz0HAUitsGS6c04aeQ+JNbzr11+pk9GoSgIj7WSdZq5TZ1uqS5bbZV
KuYb96anp9itivqDtMhcDKwamaVNDhy0/4iatsR51Jq/boLy09F3qIOeIin8xGfp
rIDH0rHU7rb7EZxk9TytfTzXiaX7FuxfxukAeFZtTp2kJmNT9erqmDF43K2cQEJP
wkXe8u2xyCpmhfL/HgJWw5m2/dMepqbV1JCstQ6Meg/Goqv5ASaUwPbrmB2T4YYZ
xEs1RDFJnnJallp5qMVPagtoEmlW6bC6E7yEG+15HUu18SX3km6DaBVwe7oJe2AZ
N1Bay8tAShdryy0LnIP1sEqNoDcPEtCeVh7Mq6haESKL/uqnJDvqdttdrK3bqDGt
n/h0cho3zycMtpz0s+35ok8XPWbFE92BWNSKoInj0PKLJh6XxTeax2H2RTCABQbq
DNCkk2yClXO9fIby6PS/zkBnHAkCpvvBUNBPpcE3VEWNkuW8wXgprg0/n+WIXOzb
GgxJ3sIS+A4CkOEhCeqLgPep5krIol5kmsaK8Jx6IL575EpvvYxTfm5lwXjV3z29
LlAMpGQ3KL7oCSBOh43AbcM8Y9xm7B6TwleYLh7ZctQDbwuwrtllcbEFnhwhNwzh
Y7JNoWQ3sZhcl3w3HZmsk3uJk8qzrnG2UaEpwOQhfQ/NWIzYQITkzQjP8rTHq2uH
3goeLkOnXTsDcLJ/eDd3/3LyvP410NGsoAgcTb0Sf7qahcDyRUvN89yPMKQNC82X
VGb5guydYewWRsOYocnKtbSALDMWrhGKuw9iQv18tQS+s35pyJOj0cpHwGModM+Y
8DgBIC7VObC8Vdq2R4w+/MktArypzn7Wq4W6YgtLxFpN2wTNw8QtLru04XlJ/CM+
fp+mQCENd08zYd+SeyNxqKLop7PktCwpRkZA2VemDE6QI18xeH0enJ9ouZoJdqiw
GMtYAROt+OSaeHOgOmFoD+10HMDyV+DPXF7kyTKBgzZW6RDjlx1+uYNvXq2vSmyN
hLiSfD2l/ipAGUzeWnPTMx/N8ftxVSDGiCpo/AXIZqBZjaNXilWT5kvIADUaSuOl
M8ntWeqkj0sxcYUclarf26VRqkmPgEmIxwIBdjvPLr+jZJ17mqb45h5iN2QjmUWB
RHEhDkc7WEdznlM2RfUwmyiAMqGDUQgJh+MQ8BG1+p9WlOqlWw6Ypp8l90Uub+kN
y0kzvhraPJtlc8YYr/2TN0FtYAUIWXLgtz6ggM6JKfpr9RTTr+/YxWN5+m8WJZUo
2tDHPF42+yr7uEWqJo8+dyo06zOtKAdhcMSHxii0FpHWXRIo4iKYBvUrTykdjEc5
HJjUGFskCRC1vM57k5DkktDrF6ByaUnaJewj6hdWo8AAxmq+myRjCrCEXm7FZDSk
zoorUl8q4r1YDH1yKXJSXOyBqrLhBxAUabNxENgsmlP2GDcklF6ANBlWW9lEEmpu
Zteid6BjgrfdHD0bqn+EEF1Ts+Ka09kd+4LhiEzZgdhUCNzcY8b8N1yAh3Wx9bpO
yO78yLse8HKBb+9bhWQz7HLZaLOpDiU6tInR48ev/2HnKgGFVBQEFVUox8Dv0HnZ
NYeMqOaphnoHbqfzCY9q5rsGFttHpq+mTjxo9beR2bDtLM4xdfc94kdXByJ9icE0
8esXmduYCwCwFNh6deKcGx/OInT3m8b+pvyWhre6whposQGmpmsrYJeivbBvsoA8
xMj44DNvrenN0v6xq4rn/ZOFgJ87gXMoVXiTnimKffovdpdbvf0CQ1tBrK7R2/AQ
iyPURqGco8AteqPDKww1Xz8aez5FkW7b5rm48IqEs9cu8jpO6nJFRXdnEt/N2KIV
5h1KWJzwPjS7N8LM2wt/Lrwc93pHTyhsFiAS515YJiljTWVCth1TVy7P8VgG9LnG
AS2dtw9ClC6LqE/C5OmISEKzxH18wXIIR6F6RwIQBjMO8KpLjaFWQ0EXbTbcE7uG
h4hcy8tc/iruexyYtAHf3qF/wx816VFXHPLnMI2zYyynMsRAMZbadeYb9cjj5rk+
w2OrWRkyNy8XSwWavzyrbTcBZ/aRb1KEp/gRGV0MTzPyn15hAkVrYL5okmSn6Ehd
W9+NbmMmfUTZ3wpZlEC2htBtYaxw9AAPwSXL/vIhThrVGtLHT7GMFwumluPsQSmW
DBs8hoMJcQ0UV3uiN5iXbGpXashAhB6agZX8OjpnDcbe+OfmWQwxFjWTsdfl4EBO
To8rJBgy2+iInRqkUbV8Y/B2AJ/Ia1DMtjuarbzcvQ/6MerQHkestE9SMJTzTvDZ
rW5nluz/L2Ka7RiEb+1vcVxCyk7Fzy0lzXmQKOlsfHOVZHh6PrnuWuYfHmQQ6yKr
k1WlzPUjYyygNb1F1FQkIGsDpemdIwQyrm7GPKY6UKwIdR2FYzXbGkoeUNvE9XhF
1sgA6lRfgUyQxLeCuD9YttVWTh7IshfQjtJESZXbIDodZ4q/8tpngt8acM7PaDgt
Q7JGmCM+FNbpYTUyugmvHvNAslVbkf7u8cgv5f67W8+w5LacUcIjNTeHmSiRK3zy
azXjsfsuG9A+nvJwlgRQJXIBR3qb2DeEUh64doGx8e3hTjEUubyQkWX6CO+pLVh1
oL2arhLEcaH8IBT+OJz04vWcVmmx4dtDjUrkvG+F9lVYL1r3PhyZuLEZ0kAYbCAA
rvYDI3WS2voLFyNIu8bV4CxHdnqbt8joD5YZITeAg6dlAAAAAAAAAAAAAAAAAAAA
AAAAAAAAAAAABg4WGB4fzQ48bWVAb2xiYXQubmV0PsLM2QYTHgoAAAA9BYJqoa7c
BYkFpI+9AwsJBwMVCggCmwECHgkiIQYd/9hC5jrs5O0h+pHZzTp7vptm42Pk+Zgm
/VCFFOENhwAAAAA4aSCMcvKXpF7sVn/DQUaKGEQmmV3oe2Bk7CeNAZAt72mrmBPR
p4RUKS6/Lv2p8Z+6VOL3LSQcGWEWK4wWbVk3vRe+3MLg+RXZeZoE1LEu8mpR4Xxt
gVbgrRqeYjtK6OlGMQcaIQT1OsN7gxySvT6JoFNSB7NsVDnrvWCEX/ltmrSv40mM
TbJzRDKXKSccuT4rW7aj27eE+zLkbozN6JGRUFhgT+lPfZtsQNJD2FYH/VU1Rc3J
v1PWc7uYq2FF/2luUANmt9oKX3Hb8GCTAVQfe/k+PvG6yKDKM+FH1kl0EdMbQAUR
Xo5VSyyM14ulyoKIyuU2yDADN41R1YzZmCCE/Nlf1YfzvgEBrd4vnNCle8EjOMsV
u6JOJXj9iFUk/ZamhbCmoNy66QzLM76KZzzONIr6KGyeR4D+N3p7SdRX0GWfayo3
oJTa8+qdoix6V5+Ugw7bQ6+ilnkUqFWABvpUVF8qI7VljkJriSSM1ytTYJegHj5h
RkUOdmEZhQDqNqeZyKNIXptkCnq7X+RAk9CMuZ8q0/YX9uwPOSBEYJpKfpMP0935
vVPl2n6okuPocq6KwW2onGCXSlda6c/reK+hqM3vnDECmEq/B1o6IOo+PDBveZfI
pBx2rCRo4NzlAvV4mhn/OSrPsA3SW+TX+BorqjSUkrIi7DNjSZHgugSnrM+7Brri
LjwVXA23BE509QWx5Sxl9aCFkjhCQKSGnnhdEHVy/AODe+e+shab7bVJKoUAzbaT
qrcqmLOAq1BTkqb2qrUH675/fpJ4AJ2clYHHhv1JIoP4BOx5Wesv0JjI+ZwBvBJ8
8ZehRa3OZ8nkVuyQ6Wqr1Uf7o8SI4mrotocAz09xosHPqyUf0oEYV80ELuTST35J
FL2gXZNzNuo1nKQ2n0XpWoO4XDySviWSCiEIxUBP5vH/Ai7TFwOqvAlMlER4pK8e
tIP2UDO0fVwE4YUe4fSd9DOIXm40PV5tkF23yOnKZ4Ig/gnjuX3Fh3GMm6cVf5ZP
/r+A1nLuhNlAjElubfdLX+V5TFCb6wR3U+g/KTrf3Hs5jSOj1mXaWvRlLV11XsDl
vrXOTxLu/sgPwW621aKcInFi2g8aolmNp991JwdutgonikjYzKsvKvyQXN4WUs5X
/r7nE/jj2fARCZkJ1BOwbDbT8s8F4JIHOYXcZh4mIuWHmgQD0yRsVuvv2NjTZtWs
09o84TJpEMrQMjvM4SwGDtU2UjrO6OEQEVvCd8iaHKFdyb0sbQaRzXBxApLw3CtL
J1F7wJ/oaKGGpaybNlNhJcnKWf5yHkNdFdw+CztY0/Z5H00InqfQ9W32KTN91B04
MrSAM8IrQX0RZBm3PkxIVnnlfx98855NO6viK0vukQk1i45IHMNNIxQg4xxe/z4V
QzWJ2HVN2QAWsxMAR4I5CuaYUxd03iBt3rINxmj7zOm7gaYwA3mg2yOFn8io9Zcx
EGWgak9eypXZbgIlhsvY6QiHal7ieWht/l/JXCnbBzEW8mAXgE7MXtbvA07RNAtk
FtmRwUE5OMSw4rQxfzNQfPZvV7vT/zTCkDpnHAn4AToyb6wH2cnN7/8K+KpkSLzy
Uw3kEAF4FYz1u6uXHeWzO7wQTE0irr2nhesBzL3a0aX9CV0r841DEh6kQ9gwYe0C
ZiVfWSL5i2RHU7Tw3VY2hhslBHEt6JYz5Wf+z3I1RmOEvYqJP8a1pXS2RF9ZQmm5
hL2WsdXFfeTcNtEEHmYK7KL92RAoRx6U3Le2HzLD1zlWOKgYDGsMH2Gkig5tHRPM
hsKKTeWMTbtRWHaZ8KVpLHvWqPBE0hRLVsalmpM5IWhPOzKjBrFiCEW5fglvXhCD
skR25gMUFzM7yPitcCigrG76lEl+00R7KucmX9RSkjsuuo/IOaAbXsYbdtcZ59ip
SsxK1MROZVJowvUvZUHSp0VsKx0JCnTsGv7c3efGnzZpWQP8HVPffYkp48o7ucQ9
s9b3tWzu5bvkAxM0YOdr4iYyER7PD6i2PQNj9OoAMRv/m9+dhpu2Xy6nY21CYEVn
bSszv45E4X19qGfdzM+45Smi8S3naub9E0kjOgpkzOX9PMBMUtCjoQ7h/LI4XVsW
pyFad4dKedLmxruAe3C5t+O82Jkh8g/gwnGY5j8CrPZrfwPaZaeLYaU2a6mgo7gS
Ph+naJF5R2N56bKIapsJv2K+efQuvB9NGALdiFo79Hud12IP5ML3WX3XqULg0aX7
UJTbhEOQ0y+6x4efcscZrpM4ea60u1TSP2o/JWw9NUqW5YqK7y5YTb/4b0CgVWGy
okN/5O9ceB6dwJEYjYtWk7VYi4VSQjgRA4lM7lCaWgaqjP7o6dhtioQxfp1+1H5f
93Mbs7iW2dO38sCdURfgWfTMOa6Q7OKVZGjVfHNo1hyO4jQUxZHRHjm7Lu6LNKYQ
39qjT0w5W/jZOQb9KPdzcapLH/n71THYmXoO+avBEFMso6f/6QArWctIUBQ/KQsO
c8awOziWXbPFdS82Vsf4NA6MNL+LvgZR+I35TN0olRfJwH/kTjKAfz0ijcLpE8k2
m5QpmkpNhPjqyX/qA7SeVHP5uWuYpHodC6dYX1dhyzuLosMc+Hkt2/NdtiZhDCmr
Fets6tpYmvdFODPuI2PfYEsf1vXijbt0UcBCWWozYnPIgUPwbrjNQpofPaI3JC+x
O+cmMenydCTsKlpNWzG2PkkQPJB88QdH23fcGvtCXtPD3AxugkdM7LnJth1npC3N
05nxzVMKYEkjyuiBtTSwK/QO05mhb8+DkP58NGQjbLI1sQVALG4+f0OT/BpiCMYh
xs/LGS2vburfa1qEfxDf6Wiew55HOZe+xqXj+vq/x5SRtz6MR80iGYA6UrQnPgcb
/aMh568jg90KnnIzZTIlbSlbMcr/tkO2zzOLJwvFceG1FApJ4AhPfrNz/M7bN5Ma
R5ZeBi9yfTt3j7qaisykiTlon50t/NP7D4pPrAHBVkj851JHMAmvBW2ACZl145HG
AICgc/JdE9bn/L7fWZR1t8L5kRqwuY+QDGC1XBvB4Eq6d3/ey5Y5ECuewhAVo3LZ
OhjdFB6xDpt475LxyLXn/KEZ24oEKkAoJuBM0/98F4zXJxwhjTfTx5JzBvgLMENQ
5DIexSvx6BAqpEc7ee4Ew9t4uuXj1MZXFqUkCojOz0A6HROXCScaaROCYARUs8s5
iqQl8+4tW/r+zB27K5Q1qA61o5bJdPv9547X8V8jefOrvhm4Xzwc9XmfTNYqAKqt
shPvwvfws3wCB91eUZUw6LT4FoqbXqMqktaaVrBIg14Ux+PeSPmHi5i8Qu89ig0l
2e4ezLQjWkzSXiH8Ad4V67AZDK/zDQ/SuVzqz2/bsbUPvP8vOTuUsAZ1nR+IRfj0
N2FSmnSGl0pKu1cB8gLFEGrq9osGFqmrDt4k9fgNlhAFLdwfuMKdqV9/6qny8k2c
lI0xC4MOkjPNBn81h/ozras/L4kcLY6Ds9a1HwKeJvc2swNzKMcUHED9X/FOcRMN
NuDrp5mQNC2QGX71A/LrqQMf2U1WopcjpAEBnF1f11w/lUwTowj4OU57x8DsnBHO
XUxxkWNmL7wf/t63ypH78kfG4pHEaT1mzRe01GbffI8dQfhtY+Co4WyvsSDOR98l
nhkhQgU3mJ6/FKQZo9RSu1wl1hYHBLel+wgv/HL/mTDCE2BmAo0ZiAJjlrPk/gnQ
uNQ2NgHPHpHQr98jGY7bVo3mzDFEtEOuIgtHDN9PrB1O2vDB7MsYvOsbOHi/7Q1H
pbeu9rYZ2gXBeyGje0s8ScQzmDItIkdl7hUpIoY7gMGlYh02qvkPX86WlCtzQ8b4
CVXRGFYeGvbcJ4g7bdcX5HnG4c3dHo2ak5YyA8lpKUK3iuQZzukxOh2XyqRbcPJv
xqsvLNBIrFMtrZB1jOrMnB5mYDXS7h+2rglCroJBQApMJgQs2Wyxwo+eDCMoC15W
yujaJi3cqW0pAQuOyPRKO2Dt9OA1VY4TNyfAlvexJpg1DWFCuQupJYjPl/tI4ITT
khDWvQw+G40dKw1qPbR5gGPP8Hkf6ITgagFhMpLGvUoEeSarCesnEiq3c5Jsg/aU
KxqcuGXoyPrNNYMiBRS0fmeYcmh+inBJjvTH4mk3R7VwxE/fOWRMr7+QHYpy9VFR
YweW3MXJuuS7xi0pYvOcYI4aipPaHD1baoyVxi+8vFOatJf3ofVHrSsKcb2lhSkT
B54VnXHjC4NievqWKJztmovv25XaCculoMcn4/qUzfOfcm9sYDHj9Tov0YZXm+rh
dd0KIul3WTTv18qisyirqRe+K8p8OnxkPblARl8BNJz5Z44uaOAIeKhui4qfmfth
6ene3xQp8n+auJGGQhvsyIfGbpOkqWFCAxXGFY8P4pjXNakOA0LH6xtTe6By/Vbc
VCSCQ6ehD5TzdqATmMr5MyBgb2Ci4TG3HlQ7gtnLgkIcETqQ2D+1mF8LaP3zmRMx
Qk6qyzpCmzPH6vj8N0GNkpX1WWl8tdLxAR8nxdsAAAAAAAAAAAAAAAAAAAAAAAAA
AAAAAAAGCQ4UGh/CwcEEEAEKAHUFgmqhsVIFgxLPNHYJEAsaU5CGXiTXRxQAAAAA
AB4AIHNhbHRAbm90YXRpb25zLnNlcXVvaWEtcGdwLm9yZ3s3jmtUJOxm+q0r4EU0
GEiMlcp6dLYrtBf9wn1kDdGkFiEE0cw64Fra/ye+5ie3CxpTkIZeJNcAADa6EACm
eCAYA+XFeAuKzldihgotH89qflNfIosZyZMAvNcEs7OVn8zaDTrHwS/+iUQNJtqb
B9pugdj/LNGZwzWUwTJOUumkvtYqtHVBWbI0aJntPUET+eZd7PZj909RGHtKGK/7
YT39Uw+dskJZUxGhgO4fJ0+PZcVVo+CtL7y3qsnJ3a0/1PkCg0rVk+LXLbqa/BIf
EAuU+oqhKorV9L9+nWOpFBRFRB9mS9+puIkqPxG5iyWELK8OpX6yxi3QS+stu+tI
NJfnkToaULijBzujc7Qd+prZ6rkjmCbnvwaZ0nqK++HG/IE5OZ/XCnxuBEjZHl1B
xHuu0QmS6+e6tvPfej9egt2tr9rY5GYJUoiQGTrdO4BSGdzxX3NjKqwqV8Oly7+1
3A8QthUDxFLs8SrJJryh/dxWP7V64cRv/eUyvFgZAVW+0idhbBUsLPOBg4sSYSQO
s0G4u0mOvKFYY6tJdBUwe3RtNPNZfAVck78iyXIIdLqZbZz2iwPYOC+RQc2Vw3y2
9atQsTMCYobaBAehCC7O6Rk5Gp/UP78oMbuLqmbJq0Z1MF22f/PKjmq0QVGN8gh4
I4JAKnWULHt71u6H1K7BuHKIx4rF3gxtFmiMZ0PBLMqRTsv7eK/S0bUzuVRErXgy
JB7SSm1V5pBdY/bU5AAhDR+0FcwvnJTdovxvbBh3280NTHVjIFNhcnp5bmllY8LM
3AYTHgoAAABABYJqoa7cBYkFpI+9AwsJBwMVCggCmQECmwECHgkiIQYd/9hC5jrs
5O0h+pHZzTp7vptm42Pk+Zgm/VCFFOENhwAAAABt6CBOJ2fVLhLlJVvTb8cpRbYQ
WCiYdZ8vwTuoYXfUpJLM862Od2LZcJm+RgvCObAcMaE5BnAo9q4ZIEZZ9dFbtr+8
CyBNm+zpQDRRkUMpk0XHEYA8JODQXYR5pxp4v+IYTwfoMXPGqtx14pCSInmIj1nt
CIhN5bT926c+sdiGf6yrW4WwzJgZy/1/Z1zsQqqBruYo2JcVMxMsNWn4We0HfPVq
S5I4r5GXsHKYw3JNPNGl+kCmmCjvQLUT+1z2QkSzohIQJZFntJXWeIMp2gaypDe4
X9NYjn62az6MbhSOBT2/lCsUsPmOqtLB9Vgv6QTqQYofaUtKhQphGiHUySwLm7Nf
5gshbusF+3AVSkDyFsuk1W52SJ2GD6nOSj8d4KqpPJaYZgK/eHdneP/l9IGSBBKh
B+BWrEzG09ADEPxDKFL4RQ2RY1RzjpXNBiTG0E9J2d/Ir4YjpedWOhFeb6lB/fKX
Qs60Y9Ocb7lSfga02KvTNcDPj8vkVw7oBnK9JWAgaZ4PkJdTYWC88ayJBjBXV1v7
CzQubyR4XhTohAHQfaH8Jz5R00mHi/KU6WIrySth/h9RKcluZZhg8TLTnF/8zvKu
UFCGZ3nfUXC8B7HAk6mZcom9MD9DkGFxpSqwbR4tAIADTB78QAtXKgfuzYkuT/UL
1VfsygOn9xZ4o2XzSwEIPa65k/I3THPAFPVO3143QgntVPprf4ZSIjzskwKUAmVV
cofjI6lGTso8OGJauyLy1KGyF6SYRlOvvd2s824QbWs+voNeOS01DpfGC5D2m/i1
zC4r2ReTrbRNLmwPVQGDL6WXfaLaYG+Ga+K0e/fe//PL3V3X09dTTT4wOJY24HZd
ZwznaJtosiulbIicRayDjps1e7FTkgdHIVRf7eYCNn8bmm22b8awPhXGtj6XzRNa
xeh/n+VqzXGPMS7h+dE/ugGjpxGqOogXwCDBy7vWut3FJHv1dBKq1tqhckL9MIa+
nMEgcnI4NvcOqsE+TBikcneSTznjon5w8JFGmAXfsXPucal9yPO08Bzyi9Ft5FVL
E2FkPpL2CXI0MHLirvYJZ3qovKvV3k3xdG/9xfwsUgw0bddj52BclzOYUcF2qkI8
zSxOBVSvvuJgxMf+1KMrcY/V7+eNNRYM2qpmlZ8pVxV51uRxacC6RZoSZwCrQmac
bx7Cg3T72ObdjeMY5podzOrjGgHBdmm2q5LrMRyk5xJ0binJJ74WJAvfLS8O2m4f
m3uhKGlFH/rIWq+8lnL/qrbbPKzF0aa1UtmgFKFnpNlzrojPPr++ONdMSpc+yExI
N2lbzcOxdyRIO36x4yq5a/txRcannuk5MXHWZoqs/3uL11MCgaGeYZpM4bkH4dHd
LLL7mKX8eH5wFXry8H5IaOUavqve2sRRasZduYe2j9VEPoGG+LixULu7SiIYt4bx
uVKuFi/ASFe0+IBtmM7YpTf2KQGfD+7uzJ0dZlfdeHcTJFTUlmy+wytbAfOE2dLd
eKWqGf+N99Ic8RPDJ8w5YbX4iY09Gz9PxM4gdJwuBn4RdSlW4Y6+DUVv8KrprSDQ
F6byfRzf4ymq/kBkl9eIre+04HxEI78OhTRLKzxfO7PQkC3X5Fc/e2kj5PPBdco8
koqcbDH4d8cSlLpMiWcLRXwPYgWgSi0Sb2DbxbH+xqTSaKXm1nSLmOD61JYZmhOn
d96mYK8WE0Z23e+jc9B0jONp8+4X0tbJQkrK7iQSJu78ECO5jp2GE4bwXnoCopfo
3y+b0hSOBBfduH3ct2QdBeOHjW4m0d7TztnaELUwmy2RNgfopYFMjfG9639qXAIi
ZiLXl/EQ5D7ZBfFkeqJRUSxbGosmd98eSKAuizwxK1S1mgtc4ZQ/zd31LrZhJpk7
7LE4hFru8AFkrvqahEgoE4CiLfgYRpY34h8C/72o0pjM2HWR9uUA8X5JUgTk6MKQ
XCJNuP4TDE30DUTZrevgnIJ59PNmGr7QUlT2V/8Sqxve+tzNmZOLHgsU6fdl2MSR
P1Q2xFeSJNJo9zsm1nPVxW8gJk3xIEOhei0iriarzF5I9WLXnEZntoCtfhn+oZ5n
JVlMHRUOL3SdxaT+WAKXXNl45XFFpo/weVEoKwH2I1fabHNvY2nxY2dQAoVPJ2/P
Z7csXeb7WwgO1RDEknEQxUYCXhW5kGYBSM6llUR27/H3fBiO2SbfIxavbvhvhARx
sIV6btoPcox1DrfyZrrQ/ghVvuykUW4/0kmGUo12MqH0TPZSo1TX02lFHQPLPOO9
nerL4jQdAOomLcfCdYrOlItC5JM3m+txxb5DTs/jwDqfl3eD6epk2M0BAVj9XsXo
CRVfxmdmC4pBYUAj4mGBak/bV3gCsShJ6nLY5SmbQHW6ytP/r0mURGwV7U/H7/SQ
JIi8W5DS8ONqAxEBlTmIRAf4A7693kfUhBLAQCHNRo/nrdHweKzjXxCz1eMsCxLR
sAxLmvQBfVEeEAdiwlwhng/wbFfFrYMJnRUSY8t/AhlwAyyxqdgOvpEwo2J13jAo
W7H4K1v85lMQKp1a2oElvagZLohz1IK/IG0vu0zkZqFFwz8YX1REfc6tLfXq5K6D
wsG23z/yqr9cY7tBCWVYUalaAOnJWnV/T9U9tI97kVnXD7ss3zAtJ0ClaDlhLTSC
U9roGo5gZ0AOjS348VynM+asV9GbAVIolUWl2vUK1b4x0zfQBsFnxZxxT31JRBTM
XV42PgLWUv/TvGLd+JMpvucoGQcafhLGaVWD4q6Bifw9V+2mySETcqq6OUw+EYhG
byN/6FhYMPCs3bu/ENfh68x49BQph/7O5TXOU5vEhKluHIZtxH7VDDcyXs2akt/4
ImmoWpSIUVau1GAbxHiqbtR1bMvkbVdWT6BUCSbT2/SqHpEAiujwCDgglyy1Mstv
uMmBVqiYjm/VXylSFOkqeI2tfRHT0zO4BJk9Ae7G0x33otxGc7YkWZo5c+zEVNm0
uXG2MzXZX+v4CdwWSnJ4GqGN99xRsp2o45JAs9PjS4oZWgXr4iSD+2x+PRrQbOfL
pYCNomarNxEOWVjrcK3O5yX3m9263LB80HWCqKm29FLndBCAdRSMy+xx1dq89ZYi
zn4e+IXhQK3Hv5xNEGZ8Ytp+y+DElmv9V9pykXrEAj/jpp63tBNYVQEQhBie/MOC
w+3yDBA7bKtjUq09ibD/j8CNG/SYZfNKs0Y1uBhZtnpX4TY2Z6/uk4Vba2JaYjoj
B8PB6fv8SV9S2L4FWyKAmuRSfNKSQP/ebATr44PHASH9Qj31GmKC7/2p71uC+jXS
7OMzaDs3pgWkWep4xHmU2DQLqQWga+3VrV0IW4kHBnMMdZW0iBEBGXfDylvWQPoM
yo/PMALFmUwl48Nw/yDmxvz8tBIP2wiK+CWJFa59xrTGyu/3qIVv6ArvMf5WrTH6
x+GWyMD1bU084WzwOiUjxEZo0mYt96EpAXfjKz9BGDXe4enzAXfR5FESpNe5LiYx
oVizLZ04LUMiR9nkEixmm2l4TrSntPQwm/fiog6wG8AVu7y25Tz5RZNXrR7DEIIJ
HlzeSy++Ueg1rsMwD6XxQ7PS3klrklMpMMkZGI758aY9EcIlKzIouYHoZLQeRLZN
U14Nn9nLKcF+DiJvyExvXhIttOs8nBahe0CbadJRRdGTh+5cxHR2AKu9fRGFTkDm
aCiQIQkMUsXeZv88WqmJzcjOL2tZKdFOIRWy/jqQ8OvxpenRr0qWVpNqjyuirq9A
Jhg+uI6hX4cNvknLU5EtUwxTHt2Mp9SMXJfcLwzexVrYImqSyYAylI9eNIp5SdIM
XAUcg63w04nrEO9i+QUA9bd4bSeSSSSysumwySQLSVsbxUxMwDG80iTLbCrTtPOm
/v/C3dABT+x3LvQPstaG3sT1ec6YP4LWHCIbnImcV8a6Tzs3VmaHVOH18d/Jkt6v
XDAPzmLo/QR2ndPBX0c8Vx0q5Y63uK0ogiCulH9Vujf+voEkTTY5oEKV+EBrhmyA
FbQqZUieGNWy2BCxA9hfHjFz8jeKF3yxjKW/AOCs3qjup9QhMoT8sKybGYlZtQEX
au9hJRHvredLsvXovUu1RGSLvjlx8nX4TRTuYFn4UsuQBlypT4LlSppv5PQvHkCH
bQjjafp3RQo2HFIaELev6sU0dohrnZiwvFMQdPy0ETdFyaQG4kd8btC0OPX+V4oL
MDlkdupOBaMsTEDxotuizU8GwpwXlGaNfXCZTGxC6qObLY3YXM/zN3AVIUyXqsRV
lpXR3jXDOsoUo/WGepyYr3snu01G6Yw9n6sCv4+LM8Q8f5y/Lfna25j3UrWz+XFa
Uv5lt43n261dZsEWpVsLOxuVJJi+/eKo3n2xXT5g2EDgLC1bvdKfIP8cPqqs/WSW
xjx7yiBtOiXfzTgrzfsZHZRHGSgmRi9T0RdJO2UtlRytSgf2XsRfwW7yZ8NxzSMa
KddUKkzjwNuol0B1fzlEmxAyX3iBqrLC1AMbrLLMzQYkN9DiCTA6T4KkusniY4aT
mOsOHCZRa4CZ+AAAAAAAAAAAAAAAAAAJDxQdIirOxwoGaqGu3B4AAAfAT8UKrWwl
iAXuOSV64Hmau0deI/VipUQNHJasD0mVmFTJb6gj6/ZMXtc+mK9WIpwWfnu7OeU9
27/NF626bd++ASoDCtTQj/sXKaukw7uJQFqR6eoRPARS2fYeUoS2LF9JD9wisktm
L6tm18RQ+a0ryrnXBPAMb75AJJIdOZcMPnANGQqIlpHgwuUSmQHXmzBKzOVp8RXk
ViZ1RUH34w8yoaj2F7Q6EIzO1DQH6CIR/2Ap/tL/pFT7GnIZMD5UNjQXvF6GdXyj
fU+lLMFVqiBQ1bKpWaLWSHdrv+VAukFjR8pO2yRxXSGu0LXMFkqI1HpQErkAlHlH
724bOhJ1tcYDesp2GN8mBdo3qENUbrjTEu737xe0RIFvCYFPlCJSUYi+/g8nkwxT
SR5tiYArnfZnHu1XRdHgQBstqLrqwpeItzd4oW7v8YXIzhoYp9YNduYppfCXZ8YK
cYwN4GY3nX1f4pkITdyYiofov++mW/tvBi238Z64UzswUSK2UfAXeKqm4fNXAUYX
2/meiXDg6tUGHY6zITaahglZvnxJMLHFpuggw12+roa4azVkQmJEMFhkepEJdQxQ
S5RhNHWLTjRmotXLOuu33Cs+3o3LDCX2gwWz+zo+spwayBZXisc5PvQVRZpmzSO/
tyTKdmkKxyEJI8GPp+XOR/OEcv4ycB3tX/5hGJAQ3mzpH+zQ+sp1HX80vW5x/xGj
1GCmS2bVDyxpb52LeVfjyBS4G9fxnDaz8rsvayImdCY4oL/bsTpsrggmtNW3k27h
OnJ/jjpiJaazdxIjwVpjBv7SykAqqQ9S4rR/Ede54ULf7b8eddznGmm9WfKm1Jfg
l+jVT1S0tDCherGhl2a4PvGFFu5A+XUyK5E0Lr77j+pj3lVSmHg6GvRnLAFvr4yv
45SyzTYCiTd9izjv1akszx76ESe5n0Kedv/mNqFPBYzgwGCN5Y2EUiottiF9q4QK
RRzxwRVtBX9mQVrEbT9pKgr6VdiSureQmJZpcd6QCe1hqKB+IvVOX3OKYvfGOLzd
bYNnRsO1R0skH+YUOSofzuH7sg0p0oOmeVDUE+XyhEcCLVylI5wtj4Op0xkPMFzG
FDg7ZHUYR6bc6eHCYVleIHI0akyvY2PkTC9o3gBzBToKwh5ROT7EGZ9wB1InAy7R
k1Y3/GKzGWVt43Uku1WL8VGGP9YF0GeAzfih3ScMPob7Vqooqm/pM2oNtcD2Fs7v
PojPzsck+I8A1UXGbBeEnY3RFRB7j7+ETS3vOHIO5yfacOXm6SGVVhPuR9yR1wGC
TovZWOw4szgmUloUus7qSAH6yH7iOGyehqVAV2GRdR0Hz9KWRs8x0tEJrEOmNxiE
PfOvjnM9qed5U3Tzdayu6UX2YelGS3tZJwB9OAMYo+qIz5gX4q1aaLc6Y/ygSRO7
sslPfo419WV/XfSPK+slFokgcg9cNcVgMkfgF2ZPdcdZVxvxyHnVimkTVV4dinlu
TqaYgiiGIin2XhN/J1nReYzQa9yboVFd4RhVxMITbIGYKRExrf7IS02pfl12OToC
nmUeIhppPNwZjBcN/PwWIB1WvSF/K2DDSfWnEL8b283JAPeWuXkxgK/Md7s+so/5
kXROqmn7pHMC8OH6BkWon19K74N96qLvgmNHJXyzQ8NtO5lMd6crVAfaxFUQRIYM
MhSUhX5IZs12Zdrjv5PJRWkvbgzqM3oOXK598c7Vk6PpkSwACY6WYSZE740K0dmW
jeb2jIDQm6R+Vb+tRGwJHuLNwk24+fsgQyDLXzF19Bml+YNDlTFvQncPOaohtyWr
x50Bq9sbTUhRsYES/kZWJAmNckh7D7Qfk8+AGs35EPyoxD+jinz2T5fiZIdDM9S8
B11NVXMzi9goDhU5b6bsQKNQP43izqP0TBMppYg+iT9/QgMC3mUYpfhcF9yH2/uk
cR3885cLUOy5YaxJdXLi/BmWMGkZvWj57hRIh09qQVq8R4zeX+423fDaoWeYpqy0
XYGYxDceQsuo/x5hfwrRoEaf9XT5aVIDnpJPdJu/8Sce/GpKMg00bSXVgW53V5YO
vG+uFLo5mmdXH7YZR9CbSZVnpIjnUD7k0r2TieHceuH69O1lQjs6Wo1s3HSw1Wcr
jyF4JFqtoSVBDVHaZNUF5xVclvh4VQ1vbk78De5rwmpS/MkOEoRSCeNaMCGiUcYi
XXMOuUBltl0l4zZq1qgF7N1dSUEeXlfqyps6mBrYIB2zO3K/6DTHgp3eYr90xJ6A
kzb7KdqS4WMb+8do74JzrKl5e+CID7OqNdg+gK/aypOMPlWr8uezzWfWuM15Z2ev
oOwLtEyp7oFikn+gxbsCxCLThFNKqQOWMt5p3bDU4BkCsahULyl4Sw7R2ZC1URDd
Jh1cfGosJg613Rnz91b7FKTLAwDbbujlmgWhFJ72WoxLLxn8mlsvYTH/bpfw5Ahq
7DK+3avdekTgMHpHwgFaYY3Oj1aM5xXREXuWj71L0nWPqH75fXh4JLsRuRDBRRej
XOW2SCp8qf5tU1po8vVD7am2eRbVmWkImzD/LtX2tI+XDTsMnYVNtx5G/bG6NGqU
KavA3KUpeKI1M1Eko12RH2j1uAGkZHNMz7cUxKeB4Q6toW4HKW2QlhPgBkfmeOj3
kDduR25bukbOOcLaVgYYHgoAAA26BYJqoa7cBYkFpI+9ApsCzMagBhkeCgAAACkF
gmqhrtwiIQY/o5NS68AVtPSFA3OQACSWN4mAD2Oo/lLhbsTFqevFswAAAACvLCDF
z56C/wFO0utPe1XkBG+wXzS2533DUBv5a6l6MYl9bHHZhVYedE/o0haEQQdbnu/h
I0Ly4lS9kGSLABpH8XeLU2voXHPrOi8/6EAchIQOA3wzuB4HO32pAuzNAEWYiw6w
/ZAZIWoyhgdKLBckQzOIJuw3UU+m2e1qxi9tosAifyVqboj86ZBHi1HHu0hAO2MT
bAqpNlsked5w/NxfylK9BvFjHE9S2Q+uskjhhOF6vE4gWzocVUpfKfbwm18RIMLi
HgOf/pnHJWSyLznGnNE5MjI+RC5RCPwFkbbDQMNnr0d9KzoQ3ul4DtlxV4myq9em
pdoNSuSTQKUHStvGnMeqIiGDA1Agi/QYhgRAaJJbIKRSvlasW3pLX4O0LJE8wlJn
Bks+ky2rPg4BDUyOl8ywnmYti4u8+19HlHCWkyhN5ldz8WRTm48j3Kzvd4O4V5+7
xX5zwG40o/ei4CSgWPrqttoEJp2izgm/TsOMneOMDCiYm15DD2uKb6qINCZRihf6
Bo+33e6V1pnorUXWFFSoZ8XyNF8xyRHW+7phJd+fB9daF0Ip5dfgNaQFYrdhwj/Q
clHonzOy5Vx6Rl6YMkJCRNxc2oZQw28wED0T6aJjn/yEAA17DPnZvrsK0SPscbTm
CatiohKNR6ZzDYtUugNXhX87+wTXnh05gkzDmRuJbLt/jK6ef1vR62hFjYml/bXy
E+59UiM+u8LkjIci0G96BTZKuHYvJtlx5gug/THm7rUlFShOIxvC9aJncCNN2F0z
eDMLQwa8BW3yvephuEavk4lCXHznBqoCCq2mYO3/0V5k9eNoBc3SpOprILtL3W8F
uMdLDh/Oy1NvQtTxrlymF5EZsvtChhzOQiLcKxqeRK9uIZ8SjJMjvNj8byXLyxq2
o2vW6RGg0uulCfM3d48ha3pX/wNyPyjisS/CLew9jR7qnMDPIlmEzjkR+ymMZxNy
YPc/m22mntiOm4V1pEOx87VPBu/f9UPB35wWHA2sDW/BCibAcrqxRnRDBNC+P2uE
4yWkMoSJ+Cw2uO4hHbNyCEVgeZxJt6zGocsZt/SqHaRGtPxaxelpq2h2jUGS/lGV
L78315GX4u6fC85XCcm713iSszhxPQRU7VFe5ArmxkHqax4cz+exKWwWZOPfkUYH
77VF9cIXj7HD3M3Z43z9c1jTqF0rp5LUl9rESfpvks0oZ/9j91lTVNlyWKkrGsxa
4L+vfNStPNjiQKw/XFJPAJ6MaU85LJUQJvEYWXVVascrkZ6bcgD2rc6Dr9xr7XEO
Tf7eWJrDlDxmeBojcoe8LjZ2z9C0/+cirSYbOwpZjBa8vUtqeFMWT5GJBmPZwO4C
Pay+80G7H/prVzlXuSLcIS3C/lapOc9zONBBj6rF4fNgtL0iMw8QBZnD22Nac0VE
Dki4gCjx/8Gk+gbQoa6kztIpnoMVF5G80tec1/rKxdTfTxWTQDIouAes5j0jHu3T
NO3hr88ciyFtzN2s/dNiy6C239TCNlWCd2mFDXMVM+It/xC01/XjJOcbzykzOvG4
SwWToXkMExXUTDjUJNHXVnNGxvErqxMtjd8c7Y5ywpUlSOFN80GtQ066s8zDK+JK
hREjTgscKd1S/2fY3Eb7Qbipajdq6IUpNOwPIuV9hyNM8IPmiTsrbWdrRZSG3ffV
eE0f3zslsWvYUwQglEkUksNTkiVfNiTKqoshaiDc6vMR3ZLnSyMdirBG/ci5cJ7V
1opIN4a1xOQFaF1bFgeqCOXDWDRZqeRk/1tKIbf+ZWqdLn6TFYOidct230/GzLYB
9YG7wcVP8BH6JoLa8OuQfMHChJGCdAi3Mc+ih4FhGeoM4mb91GpwJWNBnUfGd6lJ
5mLVCvhl0+A0xIlo4cbQv6sZZKRUf6+rev2bWWwscfCoGdqlmiAYis36rZxwgAUX
Hcl4tn5pKACH041/wTNXm0XaWiIBqjuTdI+LBAk2qAxOixjOApR4ZBSN4EKEmEgc
N08CWDvR4nk0wfADTQ7b5Fpmb+VqLXc9zo8t1L0NYlMAQXFMKZdZdRUiVs/U/I/R
VCBdAMz+3Ju10pdPgkrjq8InkoiXLgHUvehSl22omtnGbsJp+b7tYxXnbjPZP+Jk
k4640SkSmzGLTHg+C7jMJqkw5CQFAnamR0GjZYd0JuWnrsDKC80Fv7yPQk28rQU6
Fu5A7zdZl9F/XoB6/c/ZA6HLSM21pywyL0PmszL3+Dy36oFkqmfCJST7MZ3XkhWA
getGCbM2CGap1EGp5LgqNrm04gotJWOTIgm3OnEFAcel6oipvNuvDPn6dCeAiyxj
w5CMJrCC1jyDF2ICY35lIS6t50pv0hoIbp06rRIxJOmI0XYgGrjM1vzTBFoIVAZg
S0TZZ2G7zOK+yZk6aQO5WdNUt+q6sU8PUrhB1RkWpwgB/OFis/ikBQAFQNmCE1gf
1haEcgVD7Wzi58gXydiEmukYfUd0iofAaLWYsQgAhMRgcb46uwsnq6ClCD63Bjwz
Rbp80qbDhxHZUhcbm5IENJKM1UsLeo3aJJ7y+ybohaE8oH3Mq+Qatv7LJbR057iq
tLDc429KT6a26WLAx9BNjcoA5uCGMCDHHtxamhdFj7Dm0at9VI81snxPYhURWdA7
xR+Cedd6qj26dzkpuJxmrfuQoKDJYCNsuJvA93kCSFBQrRNmrSYv839v53XC/mRn
mjoWzXOwGFYG+F5r3Jq953EH6fF6FF6qc2duyek3hNRk3AeaQIUc8s7fJ20Hmfl6
HY9NgGJLfy4VEr2wTovtdOm15X95KMys3VZ2XeOD2HEEC+X8yLmVDrfBkIMb9cyF
tcJ8DP2UU0jknoNjoM47K00pYg0W4ryez6oXhNh+TNCXuFFzcylqLRyrDo+q8uSm
n01Z3Nexr0UQcxAwKHTgbgGHLI/d3BPb2VGDGVfjhaaccrIe+9GrKOD3R3bCMycB
ItmaBkkVTDSQ8TZsZDJlsD5ZfTdYKY85E3fXPD95lozelNQwPCfIhJx23c4weCmB
TAwpGvyRzt5MMR+bohobgaEtUHPT0q+u8nRCd6ubO3ph/l4MBSOYpC2WbjXGMnHt
KrK3GmEQculSHryteq9PYCHTfn6icLjxCIgt9jnteyMXf92RiCoflMpxmg7dtWOt
qXY4ztkvqUDmf2hqq6UE4h7BL3BXTGmF4V33PSt8jbTBKjXcC5To+55Ld5BrKup7
G2xwuH9AZzIAUUYqiXGqSWloWC3YXAzpeUqhgROYf8uVK34YCfO4YTbmA49NM+Tu
DezVUbQTP1VK5b+7E9p95j3wrpdn/ziTiP74t3WBCKng5OarEmOP5vMRkZdjvBhb
qtJmz9RtQe/I9xLsGEhNRplyuFt383MHDE0rY++Eccrz+yv+LVdrT0uSnNK1lcbu
xKWGrFPRtPfd8+dC8spf8fsjpXVuzXzE2XzAMO3eVrAlwg6Y/rJ88Db89mqGRaLS
K3ZJB7TUGBtgtkARyODTdRsvEFVMJtwY8Gr+IPGIyByubXDB7TRJm/cbIEx2NAAI
Ga+yFYqGY4e7vnu4HrWTLffLIJ5LYtYl3nqtOrd9AioxJxF1Ey+BjjGTFZKrd3SC
zz+8F1sFN9ESsAiGhrLcS1m0s2gx3bMCuWCXCvHkmUtmgs6YSnPj/FMkw1VkYCE9
aqBN/RBWqo582Neah+6cV57u+11AEJlJXTruJ39fzAIfVqY61oxF915hc6P88Gcd
QQar3txREq5WpY3vxPz+sH7dutSpE20UfWj8i/tiAGNvR6wOcDqBY1Eo1ENJZpe3
nsW5ld5efrrN1e25jErjUgo7XXRhKVw9K9mBcFzNFY0mZjNMvrFEKOnD58Vahqty
uW/H0he+rqdDnHBNqTDCw50cIRB8o26EdtZnGS8t1kBcaJPZ22i4BGEauXSYKSLm
4H93MMnzrf+rzsnIer1YVK2Q/teJEWixO9+Q0T46PVcif2Fsj6akraAjLyO4CPLj
VWGkN+tns0ha4G4GnvCTRHVlaYyZdHBT1L8tM/PAny9Vy4290jFeENwZ1DLjcdG/
OooXMVS2YMxfwjnUsMCyFcH1gu7Bu6Q5GK/977mUZDhFc62pachXWrUJEaASAQEn
DiHQGMmImbzq8QaWqkl5v1jaLduzSnDecj5msDOx6M6WTzHuR67sU6JA8BiXviDB
E1Cs8c/u7O9ng3QRaHsnwqSxemCsVGmUBoyaeYuR1agMOHc1sil7xoEsHYqC8hk3
vpWz9eBWc8MKBhHKfewyzwuanuh72jxmztlWDkCX6ikDCbF2e9Ttd5QCcWoqUheX
qyGcwNx9zZ+2icrbJevtu9xDaAI+tC4k0e5glUiL3XLeVpvM7oID/gS7tR9nrf+O
Vq/4a+7r0hJ6uIMYk8ImCei5UnGDk3MktPkkyzZorT8nfvxTNm2AnPk1b4jrH34Q
uXKpD5Dn9ZMJ1pEiIhKKrwq+Sc5WXdnIdqtmTkOc+mh5l81vd4qUxxseMMQzXpSX
6er5ETJqipi+zd3vFyQ2QVlrjqP7AAAAAAAAAAAAAAAAAAAAAAAECQ0UHSYiIQYd
/9hC5jrs5O0h+pHZzTp7vptm42Pk+Zgm/VCFFOENhwAAAAAu3iCv2zWSbymjBTjW
fCu5TuFgkxknJi4UekMy/Y6cocQcp4qxda9AZ6sDQCQj/Yxw/DZQDiFC8x7lQ/KE
h2vlm2Dh2LDqhKNxQ+UjhDYiO5/Ye87ED7c7to7euNLie5PT8ACrFaWSvxsgDfOo
bcQO3hWJak7kdW5ocRQut+6oUtV5zn9VblEkgTy1NK5zp/lewmOLIsCYrKTrBleB
SPcgSTtWRs5CoFO2qMJuKuI7UChRpOfcypmMcBNh0OJcLYltK24Wspe/qeng0S8l
ClRDo7iYniOAue6zveXRj/vgMR3fdWRGZr7ElBOr6caoIP6lNJQHfps2PS1R5cC2
Ab57RMRWvldMRHUacpb3zOVXaG+xP/c1yvIRL/6IqocXR8/+XY9QACptDvBXn/8n
7RikefnlBldVPGvo9iSGcTgUUS5k4gZRPlQIuEi5ZPmfe1v36yBUxPVTeeFbQqV7
/ezKVPpOyKzEwjKjbMuTnaDSGj+TSkFtMO/TyeBILuDCNtam9sNXsOfR0eotEGz4
aOtBua20MsVEqyOCF2CKrBByjBCJ4n0ZSx6FGUEPiyqknTDLkFYQmXBHmg2dQYZB
rUMOx+go6/XD/yDZJI3S9jiJnCxM5OLcys/X9chUTYLqhuGidHorZUeqK20wlqdU
mE7r/B8zfiamkCRtms7Q2BGzfKnjyOXKdYi5ZaqaLz9V3SI7FsfETPCEmIcuuptu
gphmdRhvo6xzZ6OXT3wrBuA7ODgMx4Dcez/YquoVu+jJsa7z+RYVRyX/aG7qY6va
AyXFeYdlNNOO2EA94E5XA/x9sK3aKQ6eHHjuLulnnIE4+VFYXtR3F+d7jlSD1oGN
pwUf24hi7YiuhSLXeqRh+qpWng9Qnk2H9VJFE8pSQgfu9nnOwbWgoUFfjUqLa8xc
ViUFXd+DLhei1+m7v9K+xZUN6q/qHkzUZg5rSgMIfa3DRRtD5zu6rP+D0+NNHGHk
yYCtVVvDr4CwFsF6dH72w5SGT3TDLTskJxE8WGtRnanMlkj0XkIR3gHEyrvQAbQE
8ytq6Sx46eMHmbCr8Hiajn+Ex9iM7uqD7NCxXLoANiCoYSoZAYDPf0KRdpHMX8lz
TKIbpi7N2L1w2LmNV/r/1QAJxrP10rp6ZoOZLX+y1ORE136ATXZaVGVmmke9OSeJ
9yNSgkIkoCn55eT92L0aUwKwgzC/EZ4TPp4lsOzpCRAXY4RJBuIYgk+9GefdbM3t
hzDEGZwSSSYukCERuW1Vb69HEAzv+Qkon87ovsUUhq1z+XqWNQuTd26c/GANl1k6
punlTDj+6PzZMFZzcF6NHl9faHtvrWgNgLPCxjrkgmvVHey2cHuaEReC1LNr5v6s
+hYzCdgu+V0HFnODVNVHJd1Qq5m/so6Se0S31jMKxIcFbwLsbfsOA6hx8jKIY315
wn/NcBcW1U9SpOc9l5L0RYXsss4SKXnXmki//HkEEuaCZRK6syYdk4kMnKlOhxuN
t1rEaa9NvmvzVDIVURzs33fbtjIJm75Z0RWuIEhwTkn99s92ctWZ9AUXq+vjU0rZ
Vc/xh71quFt9YdvyDc/82Tr7iB/zCOJaBIQfoT4+fFdyDtQmlp4hUAKyivRjQAGl
6xaxLvP9uyugDN3E1MaYwpSrdOWfGVTDMwjJGQrgyZ+jXEo9VvhWa7kzzwt039IS
+9fe7QwrWOcKAYMUyoh2q5bz/YkugEIZ8UzUQxR4NlTCyVEM1FRh+x2+2lw5KFLC
+aAjWxQMQH24MtbjH2NqYAgdIKLRjBCycJp8pR0OPvehoWJSOcXYgRyOjlEpJWu1
t3NwYmxmm5XdfZdmqIYNXQZxeMcQhxysZ+/i3kY3xFRhUQsdpMDVsEPatahoz1AI
k9R7ssN43qcjx0KtEqEy7yXL0s23fP4g+qI1nWhpfhp5TkOpR8RWuA77rIAfMWG3
qFwBgqguYa/ud+M7EHr1VdAkGooVbQjvzPDfIz2pLsImozIRCxBaaq0uv+hHV0Iu
SRwBVn4QKL5z16XnW12rJ9jOSY13ffsO4GthYZbnh98AlbNEonGndv9opLOnwxF1
jAUVY6ljmWJU1DCVAUkQwZEcifJ9If+OzDoyRpxCFQPgrejVLc1KgRVm9qm4tlvt
kSBeFiNjDFi3UG8bZ9d+egd78JLzqH2ZyoEWRE9eDLA1+ZtqXYhsBmYmCoQNh+ex
gBXbJACYC4MBWgpK3FYi7wrDSyjI7lM4ZiOIh7l913jcZYwPr6QvxL3UkA/M+1la
8Vij2CoY00jgu1KhyTIhC5Sh/+X9w4kTHJqwNhQjxSlCgSRsK9olnumLsyIxcv8O
ziiOoDm6bAq6dRwj+qLnoXqM4+k+YpJc1SPCdod1iI6a9HTH97rsOMAet0s3pUTh
SDaf061smWmiKmzkO8RXjBvKrI5qzcqv16O1Aa+Vkza2Ru7Pv/pyrse60v+6Kj+E
zUuimRr+T4didff1buQbL2ZCxeNSxlfL9/RCZjnkqoTkkVLcsrpfP5ys4S20jFeh
zdnrPW1Ib1QZvy0gvsgeZmp1dMQgtffHLIz7DE2YBiuYpXecwrMzMxbsst8TqYvd
BJLV8dyrEQaBw4br0nRfYAak4qmjuDxbz+5kQN3b6T3uig+30yqo1yNezcIeRI3r
Pb2ErOTtoYr5T8C3ABjeRR5J3CWzuF8fB8JXT+3PgahdrqSdCEJ0aHqTfWyL0jgh
mVL7gjzkUlMhvQW58Md++ehoCsyoxMr56YEum2z7GcU4vw1iqwh76Iqf3SQWxXxY
QeOQfF//BxccQtTGEcbH+6mdCXkeqzrHN2/q0jwH4f/6zADbE/nhz43PAEGas586
Vh3iIMpY/7vy9GVgEueHTCn9l9MbcROcIkjXQPX5/tG+AEpLiLWi/9VN/H/oo9Sx
ZXdplbPUzCeQZVVjwXSMvipLZdNZr6EnYh8kJ47nqa4Xfz/jpWTaoDZKzxK0PEDe
bq24zvDu/+76D2aWDQvZivagT76VnBhwKcm5OI8MDAxpdVWt8KZBRIgHQA3X6U/2
Xz/BEHKqtez9FvKRuMsDI44AjKQv1wkho473WmuCmuBT0tVpRLMJbQi4VENZ04DR
Gl0YC3Yt13m5rCy2MhYLISc+TvygGgHMB/ycNmLwjVBpR7xx5SuPo2Zg/CqbdoDY
gZqeHHxnMRQ5Mq+glCw0JTJz6SYK5mXPER6Ml1NLbiYeJcOlxy8I0melCUpZG07+
TbXRzmlYbcnc71+ULeWszs8F7czqr1OAIQTOi0YkWkKXpVChsuk8UFunPXyLGmpj
fNoQN24Eq/8Kaq+0b1Q1576alKCXh2GcCVp9CUqPh+Y8DrKZjurvrK7vXryfuhOq
tV2hSMhRvZXIBIVzkk+7IhFJNLC1H3z5beoJqCvhezTk9api+Z0lkT83ctY2LTjP
sFPvT+KQGYQXB+e5IaSVI/k/rBgs09S7gPTNhXDavi+SmiXO6Ik/52rc0rQuHRwX
oceoTMgH26ZnxVd+WKvLL85w82roL8YXSv1cudc1qZkpLZ/Mnk+IIV4+OxVREoC8
/aA4lAViUuIrkpaSI7cxwFQu3f2MBpWDCNl5BuJo5RX8vS9ubsc+dWQETUr3GTVx
StQFGikpPutPTYQ2qf7+9fzejtNec4MfEMBPBtpo1YK1r3rhzLm+PpjuggtZC8HM
Z7dVSEsbFZH6MBi0mCfPL2lKu1+0tt0sFuh54swb568KxqAIdd1QA6CgwW94vHdl
VDh0K4R4GGCZdO6OIUYk84ZPTnXeyNjoumGWXukJcgS7LUUXHBVTQViuvQzjKyMt
cAvV8RDTo/0NCko9haECUCbWknJviRsmGZGy61YBF0ifoFnn9dCJUvXNF1SUerAJ
gyFjsfcYAuy7tl+n4WtSarj044EqZiqkTchL7vsXTtTKoXYubR3f/uS+wy/4rPV3
nbTONfwD2lT7udFW3tb7Pxg2LHjrWvuFFbA3nFckwwDiuGBBkuZ/65f6ICchkacS
rebspD6yuii/awoM8Fr1EKJweLhrlV5BvRQWrxQmkOoODC3p+srTwqZrNrwDE5AX
w1sjzh+9EsOL882s/mE38IEqqofgUx/uOGnZetuEJafGWCAYXkrKjJSXCjNlebU9
f7GM3RU3BhgNkj3k90Adhqba/hutU73MCqOFP436j/Hg8HDqXgt/CcwIB0YmnK7j
tfomrQ9AxuxfIXsk8MW6qCUB4Odw1wiOBkRqcQxWYCpzqLHoY5JuLnon/KEUpnEi
JF9djJi0AB0/5bWcWDi8uC2JP/He/mQQidaxtWaNBy8vtzuok4nGLh74tkmogWdJ
aKq7JspZ2cHe6wF8mH0Qgf6HSCMw09lfB2x7wy6AMr3cXRTDsQCQmF6w97OGXVA+
zhzfB4lnhBZSygD5U9BoJmGYz8yrmUJK4ok8FBKPEr6XM9IUPmrGD6SEU+9KKG8+
dljAk3cj6/GK84ZtTmW91cxGEWpmHzQ2iKusr9gMLlZugoynqdwiWpHb6iGnIiNA
Tlhai6qr70J03+z/AAAAAAAAAAAAAAAAAAAAAAAHEBUXISbOxwoGaqGu3B4AAAfA
nw7GBs0+J9hwmbUN1pmT1nmeb/IK3hjIrt7CPh3sP7L3Rnam+BJcrvBfJLBfWK9U
6CK2lzEaZ6bWsc4Tl4eF0D7pFpYaMoKlm2Y7glewlE4q4W5l5H+ECWvMNZ5RW44K
R3OGWHhCHP6/cDHoJlxJDNZFmZq7S9y2oUZ8RQhUjV3OvLvMl7bkjtcp5xdk4iUx
pvmIAvxSjuuQg5sfljhLYjCiBnXmIwCdTFM7JnB9iDXUIREWVXbW2cH96j0GI8IP
gnIBnCwlK98/Pb9AGXth+ZUpH5w+q/WpXXNZp/kezcsAR1rTEWR2mOLr6RJ4J6Mk
/JfJ/TgPxBa4cx0TtUi8iBOokcOG7bNBZcJOLVC7GnhmoQO1tedxwVqyf92TQ4lU
Ydgs+O9rRjNQoueotL6bAYOhfeGduXLvSKy1jQ9jfw8KE3Q9SAd2kB0wsKYtDXaK
Nla+C4s1RHwDqnj0+foSgABwqHSDq9HvmflH1IHP8hwLdDFLnCp4LbHtCbgBs1zo
88LVkstXaXsi5UxYxmEQOMaZnE51RJB7RIWXLCmBdQmuAtRjHwg2yODRY5TM/2Ng
wLnsAWqrXHVaLdTPGeI6i7GQvBe1KErmoQv4/HWLdyIpnJgF5iKsQcLQrVtHI4oe
H7cTtACoyyRy7iSqtyw8oShRFhIe5hZazVuWZOHKGgvE4xFWdXK4dkSiDnBY1KHj
zQBGM+/Tp8mhvLILuANNMXbVmnM5FZsxPqInqyMzX+x1ZXwzY2qKrHCpa85Hk0RC
NEyWYFXLz/t1nrk3dPt1chktB7YeU2Q4yFzPYT0qWrFV6zjD5z7/KQ3+69eUGDXb
Ve3Juvdg7HKZnRnpnrriLjr+HxzQRPI5issQibbjLp/ypggtehUHv5MOw7ggp33i
4uZ4bqP1yP4QgjtUEkW6LRzewFQiscbH7vq6ofqqgBL9FPBlLHmypWzPwH7+Mv80
iaXvjii7wdw83Ks5eJDmcAtU6Amwkuc5tXk9CoRkPFrFQWum7isHKZz4+zGwGMTk
Q9a4HcIXaPLalUTXwmoH/E/mG5JPOPfzRfXmNwMZfwLH7vZY2IR7fzZpYRIcE516
+WkkQ9pZyA6Z+xvAG3z4/qmCEGh00bDjWODQwajhVmqWbG8BKdeLYDvWKSPTITNE
/o6DS5e87HIgVCf2ebF4k7+w2XST2bjUGWd9qAehkgQRRkXs7qwYHhBGb0V7L/4d
+403m5oXA+ZR7ncg7FS/J8rVsEkfPa/FONG64qK3dJF+jMix7LvjWcHbQ/ZvyLx0
aLSrRQXrZtH+AWPSOPzRJqAtZpg2Sv46dgEJaJTKhBkg3s7+wboGPC5UpnsNVsr4
JDddq/Jq1JaCQn3yQQd2f9BDNmLzXLrQ/ZVbCDh6tt/oylI26O6ZmvmztSHc7iPQ
MLqcZYQR1QcZ0mysV4BKNgicQEDJ9qe2N7TD4CdzsdrIffscQwoh6wpfxf4MAaG8
Pajav9B3AE5Y0Opyz2BNCd+StcGHej4utJcAzZeg9ePDx3jI2F7ghEz/2bL61yOj
/LWLZKB3JZuBIfBdnXfrhdqoPxlWA39Gf7eOBrB7H4zv0oUCXnQpGIyRYVFuuYxX
9x314H1KwOsHtvTvhXvegljwFkyDWiC5SttRx6vwepZDJav0Ij/S9F9jBux1iP8T
uMvKNVtotjgvYUXfapD+OqpzOU1GFWeH94g2mYhXUDVNDKxYuKW8icLBxT2LXH08
GG/uWY3R+EwfCKWJVC9101rzEUcGLFS2wBgJaAMaoKjoHpRGJtybmlkKD1kd9hd9
ex5OidUhlBCHaGy4y95dXF8b+5NwQ+74kFPBOCOghQutIQsmEr5bpjq+J7LYD4oq
NUbiHJFDkX1INmVS1SWHLSdrKGzNWeqSTDNnkfDRzHb991p+SPZWSyn14PoPOYx/
xMnTDa2fEnndgUTlm81hnyXZi5raOknd4NobINSQ2mxDQxndyg9ETFMBW1rBbr+J
AnfoYdMprF2vX0o10xCgcrTvJiBpIEK4Y6BgauOvxvN8yaQwJCHaa4AXz7BpoTYi
L8aZZDQ0gyBa2QOJJZAqFYI5MutbQAy2h6/qAR0GaQiZ5XHfHgaUWS+3gM6gJJif
f8Yoa/c+crivXcsG5/2pE1MibOMxuxWhF7mF6qTIfwd0aYZVjxZpAekdcSE0nk/U
W4ht5QPNLsvfF1ILJRmp6NsI3O2e3Mfu8pEBEUiNKKWTO8Om/EwLw/emyLPw6u2y
5dbYJ2pPkF3vutVLx7/IVka69VPq3F/XnsWiHvIZu1LDSsQhAzxGdjjf8e5DLFzy
fBaXkbMG7sVPDzJVSbdpq/6cZ+Uq+7QYp0/ygqlc0VuT6eBYU4Hc28Hikua5gSdf
jSxM4fh3GH6B8YTF7XDiQxPNlzowQ79HL9UHecvn19+s3SeY2SenbUf8yi2G85R/
t0j5BZabVGdzT/Tj4S0lvAXvC7Koomcqr1/TGMecame5t5sVF2kNWqF1DGhOcOfw
EJhm7Ewu9OuOV6h+yHW42rFfQRXAgUbLfbApwOxaj7uvESZbs9Wx4R3pbR4cJuGk
O0oy3LEjo3B7YkXwi3uQkIMdP/5kZlyAjQ+PbKwh/PUoUcZIWxvGhI7gGAiG7bzY
SrHBWBMutg9Gythjykd2n8LaVgYYHgoAAA26BYJqoa7cBYkFpI+9ApsgzMagBhke
CgAAACkFgmqhrtwiIQbfETWXgSsC5jMqVJiJkf6PuI0+P8u8kFhGUt4qeov9AgAA
AAAB7CCZEsX09XvnAmGx4mKVLUsME/BydBfXCTlk0fURmuPNOjlqAWP4F+ZGJtlE
PB2Agrrb3tMdyfFQUY67qOAWehWw5o5SXKSqJQpDYclEmvgXTDDT5YpV5GGIA6ow
56PFqwednlu4FaH7VUcl7LmVNNZbxYD29FD4e+cFW4mG3QJ8lFNva/RdgndbQOaw
jemCp9TGbcJLQ8eT4JqZPTYZASbj6qYiIRcCytye57Sup7N2JyVyj74I5081Dn61
asfsj8khVDa4pSXOXTh5jqpUmzk8Jnt5yQHVbaEBdARQ19qdqtqwPyZFA+rHZQ53
B/91zGE8MQY901PlBFLX1swHpaINj7bl4CgPCaNBS3Mlh3mK2SoCavsvL74mbX7o
UT6t20S+arCQqgXmuw/bs7JXe/V8XHGzz/j3DEyNMHK3ti6YQhTeatzpNPcOsLvP
moW6iYiW/yn3SdGbicrW/AjZjgAbGFIqfL8hSiwwnKolu760w4eYIcIAND0Vr9Ei
tb4r5VAVIWQs8LLTozYojXBWBpTLE7E7lW5QQCFnJ/uKgB/NXuOOcoYz7jNjJLlL
yxom8vppKgcGU+mge2a1/CNOeUEOt0WNZrDrA7GQ22p+m1euH/y73NXyi0s+dEQC
qRAuVaBYkQUiNlYRud42b4YKIKiGuxeeNEltUcEaMdb+shAxv81BkyGb/Hwa5KZ7
Ab08o3LOO09X1B0QKc1DlYF6nLmPjY6hRIcmhR/vWf/L4VGE58LKn3YocbOJqm6Y
8Bs0swQArwwCvlpeOlbagTuosuvnOdkLxHUK9W7ao/Tz3EziGwmswPYXHsiM67hw
5OZbpVZUKk1lZe+9RNCsO2MW6mfW/blJ8H4PgZzL1JwlR1VYxC7JJ1ONslbHwvOU
M3WmZzmarUoXpzIZM/NZth3FnF5gsowKhKCCHhUT31sH0erCGN0Bh3WC46hlYMVN
36Lyx6+so0arkeiuGTWWRrey4lTTGL7w3iZGPaeHj14cFDVWix+LoiP+uxKyg+TO
sjq2daqgnFhXAgjtSChaXj2Dm4jXixhZQjyQsP94XxoYtd+Ud4Itev+DyzXHXkns
VO8fsan56OnU+11a9pasUYEfZAFSK8YGun6iZTtXgJ07BgM6SIL4r2kigyUb1286
Z7DZwGyHGUhtjWqEDpuTsQ92XXn6MiZv4xOsykZSASk12HCriDncubSav2o/y+mY
AictDnbnldhYBUa9uJxoJEn7a6bElB5Uq6WbXiO7PXpQQT7SBf/KfbyTngGB3tpy
U020yt6vU6pPo/HwyelTEJYcnxC1d3ElMx9fjIy0ofmvKUnKaegFCppUdhziIJvH
bZfyLgudtihOjOD9vyDDK+HJVUZ78wCjDCHD4LsfTGZLCjRnYkTCuiycEHfSUiSU
idh9z6qgk+zBMSd8yfMC+ms98xFxr/NyQBnfrPmtBBDpB5KVAdBVioJgvXe21cPZ
AfycCiX7mh9I/TQW37ssGt8Rv7PeLCIMKmz7G8UKWfiO9egLIrJNNpBhfKRcUeXY
uTowDNIti8sajzXGwef70lDjniAYel1sWZ9pSplt15kDsONsdoqAlZf1JLhYjeT2
ox2k4j8vYPRcqmRKKYyMvdEXE1VxdkqUqDAl9nd0eeQ9d8veTLBhRjmEh0J1RN9m
MGN90pqABxj1/4ZDNTRSEqLt/ixo4gHFPQSaIegTXUjcNh7+mkycgCyfjTZqk7Af
dH+Zl6G7CK8HR4x8bK9PN7/I1z8G1Qbngn/LIjq+CJutQJ6F7LnpJDNj8AKyYhNB
Qn7Qm5P1oMUyTmTvVaWE0OSHm24gyASjuHfef3XF2EiT3M6v2/7vBup6k0sWzEZW
O34vFPONtpzjUsx0LD8aj2+585RS75Ub+Glt6py78In2v/EJYm2i0OzTErPC+dnb
3GGBDgITTX+JPy7pWl4Li7C53f/NDV1BSXOQ80u+9TKJTgtMUUtZexuDOmdfcpPd
+KzCvi8zRxtoHKF+b1wEsMXV+ZoeHp08e51uWC8Hoa4kRdY/tdOcSGOoCwPZcHYV
AK9QiDRQ3XhEhx68pLVlXORGoSlY/jtAReEediao4ks5gqTjgIdIZhQkmGQvjtng
yqZFajqR3wYDX5cY0vDp3znCqra03S/v83cOmUNshn/5juhyVSKHQ8ioIj9VNecZ
Og0l6h/SZshfA+klqtYtTnQHBm92hqW+0A4ABBcEtLfNFwHugTzTkSgSYjyJlqSm
K/IYJGZI5OTZ+7s+KCHcp7uQJuq1Hhcpt57NtwwedyNFUw3bdibaV1al/RCbgZPz
mZ+MkdPHOvWzv7iYL2x/J3j5zFdo4u7QRUuFveuuNVCPluEnt2QMGTOSY9FCvoke
tnbGnQmRXlZcL5T5MZfwtnexrdaGNStJULX+q9J50NFSCqztC3nIsDs6jBXrAfK4
FJtUYxBv7e6AQSGb7Au7Bf5Kqh6pXUb7JeMazrou+UlJ491sn/KYL4JHrPvyme7D
Se/I/R/64ZRo3d57o+36x0g2LpbnDjU3kDUjVuETR5b7TIgnwuwsR/1109jpQSd/
dAGZUW8xwsVtANsurGUY3Yx/gSEqpjWbsRJez3l2HKDR4x/OFmZgQkIgkeJ2BOMo
rsymdvgifAFIWuqBvDBhtyR0sVPPOLgZClOh17kPvduee0WYjBozmggZqmPdR8dk
lp/hQnqWwwQZplLoWD1WvukeJK53xLlsKnMRDrJB3Gwolymq1w6XVGkvvyOmi+B/
KqmXbf8n5J87QdJdEV7t5PlgYwP9gys3/g6fapdgETr9//feeEoAEaT287cg6k50
WgWnt6RzqWchcZ1gJ2/SHhVbvrGNZpRbZ2gcyLJ1SE/caXn0UUAu1ArIFwu93muU
fGDlFYWrH8nxkL0w10M0+J+0ty8YQ8f7F1TtPOUWXxlvsYJb+SyS2ZG046P6BSeh
ZQOik3tzEyYr8uuHsP9xa2x5s6Dy/C+UEyQ8ZyOXyQlfj3+T0+375Amz6cHTzb7p
yQapWSXchftZHOI2mSt0UvlXsSthVSt6WG5xSHGIxVDXiZRnzh6APYNrQ88Vys/F
NHi6kyYTlDf3sk0N4RZIzbRv/ynuH5dEpS5ytSLOBSsQZ0uCD4Il1tpW8flAUt6f
veMzMcTzd718Bxtwsf2bPp6nfPVh6I7dnWQCbGoYtRCUuC5hsuAseuSrCdSWN2Iv
JOnfLA+nLyVe/3WW+3Vj06BJHSVHEQDdbbIITg77aNHjx0T0uBklA9wb7ibfOL61
/LPsHNPoZqioISkkGaPXqm9Jr58QoJmPwJRjzuiSdYuZoiYWax0HmHWM2LzzRXJT
W0sVJn9lqtPpksLZjO70e2MYSc19E6yGIWjvWUDgfhKAv4FNVG4PyDbhCSEWlHd+
BX6osh/XSyLRb1XItiOg4kTMqzdF6CCIqGL+wo0qAeCtb4EEOWyk6skJOGxzNtzv
B00FjJyK6taWOexJ9e6wgdaFi2tdaFsTJ5NKOcz930263yQPmLgxBz9rLbbXmlLD
/MWfxYIiWf8cjWjSWr6aTFHNyjSNYBlDfREcm7Apf0IZFmU9kl2JVulY+Rw0pWR8
8dgdcEBuoG6t39VS940iKGENxm8+oiTCGQlMsV8hoBz9EL1vlGXx8HAySAvbGFne
auUkA1boLmoNsUs4F8I9DRnCZm29xSaNwS2n1JFRqSH+gHrA5+u7NjkhnLG98mNE
JGST3pulrvubV4RnIOl+5/Zk9Gg1nuQPganmLoKvB15eD7xFLqSf8rfuhRYJwfLT
aE0iQhPl8x+qRMFJM1rR6g7g6YnUEVxgoy9bXEUxXBvtM1i5HRSmTJLMntlgQnYU
hfywO+ibPE7oFHrQyriUU+LwK731BreIG8Qfo+y9yEqmsUiXlsqMB3rQzbj9v9AG
joD/5F52XnEIMG8oG82vA40Mha/FSzmezJr4GkHs/TQi4sKsr2TnPHWB4uVcMn4T
G3f5eMNUD3d5EPtKcfoei0d2gqq/ZwWdBBzTJ+DD8NQuZB9dpn/b4dLf97xnhrp1
oFRUT8fyCVs9uI507FK0eSZYTff8PepQcVO4oRyTFmEuMrvKE8kdiknLw6LAtiYR
ti+nInKLzzhoi6bHqBKXMf8p4CNkGZtVMgHNct+PBt+MGPD6iOVgTqx4mJVzr5bn
FuRlI8rxn39EK9WI+xvAP9vczstKrVtYojikjlBykKdYnd/E4l2JSVGY2mEup3o3
xYpc1Fk/H4j9i/yE1fNe7rK8VNZI1vMGWRxmT76818uNhbFsFIX182mDjYuM7Vtb
UkhevriDEtVYCVWH1HqyaZSyGuPP9dPWeIrx0QkHCOxq2GYVH1OM7HmRbi9wQPKI
penXHswKUD6Aw+cX8HfveLjikQJuP3Jh90EtWdkOvwfBT1tsBfd46D7UpK0VAams
C9Y4JueFEWT68c9QRTmDZw27rEPgb9ax3JE6erpd3qr1tCp1yilwgZHN7AZ0dbTP
BhkbI1xo9Elnfof9IURNnqzd5BYfN2V9i7zKzQAAAAAAAAAAAAAAAAAAAAAGCxIX
HiciIQYd/9hC5jrs5O0h+pHZzTp7vptm42Pk+Zgm/VCFFOENhwAAAADIyCAvzPDs
bKph/DsxowHVscg9d0/SjncEJInmmnvgEWLCt8BheqiieTXXJ7nu18iOuWWdn3/a
+GvSYBN+9jy96V4vw9TuHXRCbkSqUcHbWJQjJRj8NykDVVidxMACWxTPmAoVVWvm
6+7/XmJqwFuDMwzmRw8BFd91iedhaEoOzvqTRlITDOw1IwtGqBZ5BpAf6L+BxlGU
72EPdetsHr0rcHjfeRtR/oxkqUo0QGdUW0+T1JV/xUo2CyRYLUJHS+31knFqifgk
3g+O2J/y22/9zZEP62GjoFDtf0StNtbhEEfs24S2nxKjjwYZiCfhm6SOWy9S3y+y
DioUQ7JBuck4WQMD9FxF15wEFa28MvemSS75iy+quc79yfq5u3vKh6jpaDtkHhxG
4qvDBMlpcVpHgqZWM5pxDaCAeYzBg0QonSpFbi4d+UtdkzH2p27gy8os0UPcjT4C
TXUx7c5y4lspVAmn5XVYoYJwjhG6dhfG+4WfU3W5Med0kZUnPVirzA82C+ZnBMtl
p4YmuzLXvpQnf05/QuHMzErhPX9Z3asDF3ZaFnnovQB+9Ip4o9GNnITZDCPsQ5JO
5Xl9WuMp1PApoNUCrnoCyQYbRmFQ7eA0wxQJovmhcas3E5+a9/mjQFz1DM/EI3kI
2KZsERY8nhWvsPthyseuiDwf7UycJ7Eri9e63faBEJd9jTLwzGC+fooK2DexgIO6
r3HyJUvOiH+n5On8mEHD2XaEY0/8PVkoRzPUYHBoMjEi9M254/pZqmYz9IBRwozU
/jtvMQXW6YYioEpaMM1LwyKgMBXAsvUN4ImjlyYFYSX6tRBQhURbZJbnIAz+HstK
yq9diTHpcm1drJNaqKlptphAp7Ie6yB0uCfBIvj7xeAddUXUfu+zi+io7c+nom/w
DwmPTgx4wiV00Zeql2o6QTDFLdc8eX/ATgKy1dem2N78W7dF1YGMR/G2B3M//wNa
CNn27kyf17EYXsjxQaVwjqFsLnU/d76J5iKed/YYrZoLPcV0LiHz8vjFwAtcXjcX
sfZaJRO1UbRWHG0zvfFuOh8VwfXTYU9cX7k/TK0MLb63cETW9SBhauAqvCQ25Ytp
08JuLMpuTFZe7vVe/fVlo42Zpq0VUUtUGiEmIhBdi8N1lxkHp/8bXl9cnAXU1fBF
tc0W/AvdCcuHY7TX81ysibEhCS64IQ0F9q+LLKhBbYbhffnx2zvPxkEPAmFe+8aW
dIZOL30UcPlPHHpOqs+6MwSxE1myZ1E6ZqBTRDODcFRvP9TKxQY2k6CUHvxjZuKt
DN+l5gxCxaV28Oelr04ILwnxe984Jd0hOnYAiFSMVZAWDKRUDD3PPORr8aa5RMxd
XlzAfjUn73F6OBzvgIjS3S7jycVbcvOCT+WOty1YfPy5wUUtSX2hyIJEwBZuFRHQ
TeCJKlxZJQVVKg0FZULsIOeMid2dWZUc4cP4xEBulf3kcXC/MTyqiQwR8gwqssPU
MUuS7q0j0R+Y+5+ThbTHDGFxtj338IHRpZyUax92h/7IBrv3aKGhAm2KdQ5qEC0j
16ZHkPOLEDe2eHNYx4TbGElFRLiwJum+iQHP9zmJ6LWwIX7VLKzVM78C/jdys3zQ
omAyleeh7tHi1w2nnftrQZx+fYMc1sMQw78PWRHMLQbgCud22e/PQl43OeVrlJ3S
M0IS1df4ahmb7IjjypHZhObPt408NICHqyYA/TFui1PhX7oVB5NJEuifTFATlSNa
cNEVdSRXbaEbCWrdsyPv3kd6jhzPKwYo6QVQ/O54I7NCkrhIVee64Bk2n3ircg9m
BygWC5KwssnsjaamNyTQ6al9ZTvHoin0oD1uy5JvAOGSNwU48eNbcHEjCD5nmZ4E
/j/ionK9NEHpA2yRetpvoahiADWCtvHlt5Qhy1TkZGI8FkPtQVl5iHSNYf3leNFc
38FeLXMMqotYX7RT2VapRv92Pw3jSGaWQSd79F5RG/Mr8lzOfNmdD3QO5UPGUq9T
WIvdazSDvJ0jtIsVJOHiLqOBTmbcVdqZOgzhXYeCLpEGPK9hTzKSMsr57elJe6HU
1napP+1d16jr7lNw6LN7D9pySe4hxjFo5wurYuMxWOT9LhkMn68ECMq0Ad8dYOfo
KeZASLVd9maD8/z3OqtADM7Nbc+cXbGpH1IgFkwRSKChEQKSutUQlPUVQUXJDtpr
jy1DUCM8DbZNRMzh2Uf03WymI5MX3Qp5C/KQ6wXpJw+zRxwQjrYInVoF0iZUr6ES
sxFy63eVQQxUU4qvEV2rukwenEp6zGBdmIiG+oTvJ1uJkpiuzpZ9GqjzQdX79tkY
upX7ZPrtAgopKm9YO6Qcg02bVHCq/ZVmbg6XxxY90eurRKy6BBAfgeqZjiooBWDy
XQfpnCsYQKgn2Y4h/awt9RiftJyXD43GavhWfovmn3JR1CfoaEamCBKAO9E+/k28
nOJ1sI3gWkvshBV+6KM5QJtnLY+b1YVmCdYT/x9Ch2gPyO9zREHA5bKaY5uRPbL7
ICROr4XMJhGWbQXDXy9kmK29cQLXYcjaJXe04sqHKABIcCLtDFo3zjwtb8g/1BkD
WMuyxftU2ZIkXlo1Q2mp6Huj2sH9TV1pe2cW+9O8Pjq0dcc/pd/cBg8wlnUAxqYb
YEbsr3oOAfkXfgsngNSH79ZFucOmf8/B00ZjXSkTqU0DhvXly7cNWEnkdrClM/GI
LRh2z2vVbv6LZ2EEN/8YEgZ7OLzplBAkPoCcE2Bd4swODMtDRzuwqVCNUTUzIKaY
hHtX3haBBLgY+npoE5b004KS2Yo5T12gNudWjCmSIhrYhJztGuCD85eJ1THxTuMR
GlPW61ZL/G+THogFhLjSeFgWNheV+Lit5VTCC1nHMcx2NxHnnYm63Qg3QDNgRDRY
5VhkCJSv03IwrFWPc3W9TR6lkifliplH821S3lJ5IHQEZTe6onWz8Zs/s5c0Y1p+
/cSyBSyvgYGofUSiK6tmqiCr2NbEfn7wsCbF7Jr43CKmCNrads/Ld6saHJ6df0yW
RgRIj03KNdwMwtH9dyuSm6uFhyjzAfKHQATv5Xf/tN036eOes3djuqUN+H/xhZka
bHGYO1yqVoqr0wbffRk9bOw17LP24mvJJbnCipxXvYn1HByaifssUzXQM5tu6wC/
eIzqXbsubCEUHXDdjRC8N0kvMvHrxh6XNDYP6N3suFregqZpthoqNIN19Q0Nw8uk
9b0bpQtOFL/dJU8ZR99H3tUOWgcuPCWD/iqObrOw7WlmQkFGwfCXcHI8Vmq/M3nZ
knJFewHW2UcEWG9vkfl7BKJuRPDSIIcrxTOWXSZSCmyhN2mviScyTtKJsmIMU6Pn
PUUA1Uf9cEpNtEDFzllyNFysdcELZg7GQ+QHvbe90wTr6uVrX91aAO230a0M4Ax5
qtG0yTl6IP4FY6QszW7IFjr0qD9IslfuctZkSEF+327zQwRjVAQ3X7fA1T4E74bx
DfDqJqn2k3DGmNzKVCWsPumeO3OuvZwPAbVoSTyPnpgDTrdJWR8oap7RUgJY4Ohk
nouR3Z0Ia/dyzuvXm2uJnUyHiznbbpJ39QaB2zYUN8eoS2zFY9NG3qoHfidDw/je
xaKkfFbc2VmNkGMcvuHj9fDsWnFgDqAMydI8iQUSQnfnfz456+zE+NhJ3G0Xjk5s
nOo8H69acoejS8VWhJVbyvSy2zNbnoUgFQDx1j6U4ZmaEuPhErWqSU5xB3PZRUP/
3BiJ4HiT3Kf5qOORWi8mkERMGGWVU5+TUU2zXrq+Y0Jx2Lh7PHxp5MUyWMRojdsr
5FvBWmecVYH/y0Cl49JqkizP/hSw9z0AWd9yVAlo2e/lxNe3+3rQzdqLQ9QgguY/
zb67JxFFJyl/ko9xaMaAzrIIcgHnEpOWCoIetffSd4TzcLbe0K4MyAOynajP+ueD
lR19npDvXOdLgQxm3PIGV44rWy97qtaCmEpzeMP6nzFSWXu8MP/Pv8EMYo/3blQ+
pRAY5ypRlwT1hycW7Xj5wuovD3kulUOFOi6DZ0MstNJk8rjXL0yKG9ZarHR9xeqR
8dxU92gheRSPBIMBidfjeWmdcS2URNzY3b7yx2Eq3IJcjAVbtieZhrOHkqcElFZG
Tje/9JPRN4jwcUGW3Y2tNY+lonWuJfiAjOwzCYxJjXSrmQzMVLhYfPKJ3jyLp3kH
Uws8FjhVuojEVq1+KLapG0EBsX3Axq4EdLtKNpRH0f7eEQNV0+0YNaoQWwko5TD6
mJ2nyRGOOSBwYZwbTVv8NaXrpHCoTSmlpb6R7pmNRyoj25QSbEafkMi/KorLqpve
nEO3R+S/epIsqZXFfxIb/8/6uMeoC9r37d7F2F0I43f7AUSFbD7+m8sKmXlKIjAr
ko5veLMqt+3bGjOO5E6JcDlM6cPaloV0ARsU3bucMdo2Mn47mmK2g75nlfifYS6q
oxZeWtNi6Oz2eXlKy92I4LAaFKsJBO7Cj7uGjhEZaICGmvBQVmV/j5uwLXWV1avK
6RjEOqL1AAAAAAAAAAAAAAAAAAAAAAAAAAAAAAAAAAAAAAAHDhIVFxrOxAoGaqGu
3CMAAATAojEYxILdeomjYwQ/QwmogaXNYexbMhr0O6FDrYqP1CqVDJXj01VOfENd
9zBKOr9hMrTOGsuquMyXF60n9U54C1ilBq8HCHfgtG2DYSCrxHNwZ8/ZIEsZ+X8J
y4PK8l87vAKaqBYhQAUriTXfoTV/i74tDKkyQENowBqGGsaGm64as31oRBq/8LL6
1r2puKTIQhsxycHKiGxY7ALfYw1t8qHxpQ77aR5WB50uixzWLFjhOqPuQQy+Wa6I
kJ9oxCt1JalNgnqGSyQeyKFh9TvqlMznE5VaoTUjNZna9cV5CMlf1H3kOckL247I
ImC4PD5aFg+fPHUPeIRjNrZhgVaMWW0LMT0y1BeLHC82dzMWOFGPGU47Ji2sFMG3
ylREQbZboHOgWha2EDdy1Zbz+cHdV5LAJiA6Jq9eohE4K1q56cRXayccW4zQup2I
OroPMrXB8ZXjC2AEBZK9gZ8gU2gOKcOLCqkDgmTmMjDwy4PB2DHFd3YLGCa9ig55
mFFmXEBnKsT617DZF7ZuxQKN6UWLtSMT4ADOlSxZMEwNknbqB2Aag1CE4Y1PY55w
NWMVu2Pwtl22HMb8cQuxqVuvE7cuoINtwqGC1ULf5hIf2KYrWlowOkdslwnZ2BU0
pRAN7IxfABAcMMFOC1KkaEy+5lvfQTZ1pwSS82B2Ig84G5Tv6r/HSTTs/J62gheC
QT3ACAlquysFdhUvSLjijJcNszDOlcXviKQtc4R4V0gv9xlDOL0bglaT61DI9oOw
UBYEdYmq1lIqSGURKSRBqUA3mwSYc77lXK4qRimFnADOYZfsdCIwEnx4UJbTdAk1
4wyIOpBaHLuYAUoRCXOzWiD/F2FLpc4jQq9ehX6Wu8dDOZfcFkeVcahA8T2NCkw0
cRNHB2owBrijqMiJhqzVC32wOKglu1r64ixi8Dj+anH05Tk3wc3E9sLIG0oRhH4g
AbCgt4ic4k4S9lmQmIgZhKHWmW+QlG4UVxg4tSEKRUhpZRp456QDCBqxiBtKBgXI
FCjdKBXtRI+h26r71Yw5Bix6yMfBR494dhQcJSB6WbjxVwQ5yyxgkBQbehkhgxuY
m5GQ4JXixZxN+aRQyEp98ig0Zb0uhcVQ2EhrgrFWyqQPWG8VnIVlxCIB2zSWLC7L
V0uBcMUrG8fudk478m6uoz/wyXTotnCvYLbdjItRvHQRmqYvSRbH5W8YKMQWp83r
0jS5E7FfhxwACMRVjALViXhysjr0KFk3cyxZbCWes4+2gCMxkSeJUApCMZkuwEdF
WZq666gnewmUtgAg6V4HjEtvJMq79axtmMZWV8dVvGpYY5DkTF4Och+zM7sbgnnD
O72xWjNshzqosVkq1Y/Wkb6fPL8p04Q12EdSe1W8FDZBIqE8giLkk0CZoa6T4X0p
B7X8DCTXlXWSO7CDdUMj8Sn0+F74qK1Vy2WW9UDXQCwMKI/UVh/mpjQqKlVXlaur
QpjK5qLKpFuEkAHPNXTlqb1rmFjQY7DXkYYu6V7ZKME0x0KT9byR9s3F3Mn8OGY4
aEgpGLBhg7unlocAvc2lanurq8n3qg1rIHVNo737Y6Wl4XkRwm6uVMH76WUKohpf
oEuEf6qlruiNUnLQ2H7IqHskA2VhcsLMzgYYHgoAAAAyBYJqoa7cBYkFpI+9ApsM
IiEGHf/YQuY67OTtIfqR2c06e76bZuNj5PmYJv1QhRThDYcAAAAAQD8g+xamUhr0
sPIZ2YTzBxhoyvricTjkowkaN3FyWpKSL6NWf8uef0FdMXb+4G3DCUqKa/YHV9Ix
X9HvvOmRrqRs5D6xbox1a5NLnhX1AELAu0P0gTFkG42oi2CvEBkahcsE+89tZ9qN
0EApwXWOqVnIfVZXimCiVUV4vXff99LNWUyMH6tSInVmzEgtedM2jUXK4wmRktSC
ruN+4KozwZN5E7W90O7ze89+uvcJbAUN3/iSwOxmW3g/ZjVwO6Ze55aEwEXHygTF
Us0MUU3HyrsPe9hI2JNPbKVBxlp4frttaSWfBjsSr+7ahu6ElfNg3PCwieVJOeh/
Bpgwj9d1uuZ7SZQoc1joUftGh54jmxIdl2OQwrNmRPsgYRZ6NVrJL9NxYxQT14G/
3avLoDUMJV+VhqVnzupz2ZDtGU+w+ZlNMnMeYINEj4xG0ufQzHfj1CzCpYpD1h6V
H47Jwi+KdrGAqfKYDqU5Cu/EC6vNchU/QnwQM7gR3u5wUrxU2Tcy6RKRGZEdn2zn
b6yPxb/ndbb//T72aXkWMK0OJAnbcFq/KjphLjSYAjRTzKyIiBObDrkj+C1gwcTK
yPq/TWBkoEwlJPkZFEBQHBM0eUKVsNPR+Nkz3qfOnkr32hit01o9RYsqGU4c1/i5
MySv4zx5P207gaw8sDDoR/NbNeIt3Cof2CwBTrpwqGED1VhyaT5OYQJWTgC/OOrH
VjMutRLVwfPsoGVT0Z2WfpwbNiPAo3BFeJfztHXKt+GVK/6QQ8pQS67+ngsubGWY
CRCH4OY/dsiReHtql/1/TAYuBwj8s2+X8YId/XD+Fw55HuWjEHjdta1onaMxTPvs
p7zpTXygJpH3PKPIcFrm+0G7HD+GS6wuCjMUQ0q5BpglR01dHjSCecI9gUyeY1KO
JBS6RRVTljXzBl2VAfhPkK9zF254C5xl6f6gnPObtSL3jZ5vaI9W9IDFMyANtxU7
SD9d9w+m6ZhHYLU821mlu4GOb5yt7xuVztHpQfiqcuSyqBVyDVbdIWUS779CCpUd
ylHBZkg7IK3LdswELLYEJu0fMC5Zf/sUpmWVhLhoGITHmLrIW0WrUIkQOEjzOzht
x6jWozOdBpxFjIP0CZo6pBOXW96Dty10EBA1dcfg3u98H0b22+DhxLXh0RHE77ZS
yI1MBqIZduvBi9LW9qh2jd3RffFzO6Jlv4E7qhckjMglQq578SYGO0tnRycgW42H
N18h29RO0SZyLkl+nv0QcJO8Y+udFmpxjpi6mQ2YHXG+NYrk/6bhkZtZy64WiEMX
4UnvnMy0p5t/2fZcOMnmqZP/Xgx2CXk1RUprXuMqqe4BCP+gr75/xjNMZ1GsZimR
En97RfMQLryJgZ/ejF369xM0EpK3/zWiM95a3CXtD79/4bn7/26sajTTJC1oIILs
7ZgbQU1fw0le9sUYrJPZoOtZnZjvu7F4uNmLOFbsHjpqgg7K4ZGlbHnHXQehMHiF
7MV/Lun1C5nFdc1KV8zfAgWN7spgY2sTO5Jq4JqbdvumMOybtWF5GmL1cPt2lv1i
yfUPt9VCnP31gb5ZOk+z2MtZjvCvOXVpN4WpCSau4v2isXiw0NxFCKoPeAqFNafg
j68PWrd+Fbj/wHz+fE1k+wEVUxqo/rLG7M0F0Ihd4EhSyWmOja0TWWrTtRyIJD3G
UjvNRvlzC1K133bxFovYFW9b+ueWyXFs3KBrOKe0YKxEVKqksF+AcKAkCcWb9ZJ4
dWU8TE8hlBrDA1Mybh1GYdCkg99tRNs3f52s+TgrPlZ2CDXvjFr3UMwnTWK/7g8S
WJB1LQwdEsW7rcxwyGhi7PFaZwrZXXdSGGWfdDW2w9HjKG82dGz7fiXS9yDawPBs
E46F4/ytiTn7ixvEnOdFkoqJGtx8QqNghiDKFnAEDBMFzGZO7ghKI10FCvLRm4Wf
ym597nzaNXlmfw/Qlh2joBoFaOeS+4tZ4nvhOw4sHK7dlPkXEt41UF8qw4ErbWOu
daXZZeneHt7VV0JEOzFUtQ9PoBunP34aBbPQgcX1uU7YUEtoe2UkVNcMvK2gLZyf
QcXQg2snNoFoSWK0k0ZgXUN9uYRuqVTh2PSVg9sPOwScUXPFkJpjKeCWs9bRj2Oj
KvDEwjBW0tUrNZAgR+hmrowsj3sNDwefQsDQAlXEYByhRsZVOExZInYT+9yb1tD4
KuarOWpqyGbDDOvYyWALJqf8GQNYWGq8N0R/vCtW4B4cryB+UBxx8ZCCUgqzSGOr
eqhwUzssw+TIqeSWhW23yUBiCbpgYnwaq81oCrcm8xBOcceDobfelcUQmMyeq4xr
/BewiGRFc1eHLc6l1ctYr7cAHg4IEoeh2XEnLsM1N1Ulxs6peyYbCgtMT8B0rzez
jQmcmD+cHeFklC08BmVAy4W0gwZLmufWu6N0pxCKcUf94aYre0iiIDMb2oT92hKK
5Xyckd/KrkjKT1SlFnVYWeNQTqLBsD7ymq8HUjP9ijO2TlqO6DKVCPidfZfCPyJg
/P8AAGHzmPYgq+WvVnpwkio/ebZRExXQEeB1NaUwu9Vk+++7fGxFsjoOY1inidwf
AkxqbkoMODAN2QaLL6Ar38Vf2FGpQIIDw9OJHJjEcCpzkqJlxuQjef2TKDvLIF2X
+VZVaKA8beCBQiwyEADl9OQ7LuFXm3OXlP/zDyoe8/VmmHCvBYehU3xYxp34X7MM
op+SNNyldgwlv4mFHkkgrValpzbBn5dVFhyoTh5YQLdnBqBzrEBnA9X+t7Q6biUs
hH4rWXy6e1JLdQY+aW25OUDwCPuL85GQczxXUL6wDT1nhSG8B1LZ6gyRWdx1AWsw
3hxqq5abbIJkvWEaIQDlvnln2fshRlnl3+8IdF/keCWrcR4MfXzgcOkL5W+vghhO
8um77j092mbg9DDDtXVq4p936jI4r4EJslet9fVJiaODK3bytdfGvNWqfwtEy2zz
k7nQ4X0L9UMp9p9wrwsRejpJSs1frG8m3vaLNg25EEyxdcx7tlk5zVDkKVB29rgN
wud2XA/d4b5fgi54J/SLSo+5yJdo5JNOaxVV1tbyTdV4Dg0Sikq6mbjNciyAMjr8
2ynf8jWVkmI1DYjDRPWRT6aEKBEnH3QLBBLNGXT7GuOudxlGfJIKusxW5u3BJtcE
RB+uaggNeGExhIGHLXDo4W1NJnQkLOgDJQR8gHLxNqJ8kXSYCcZ382ZQvpQ1OykX
O2evvfDfkr9ePbxtmQQnlMesQYERhmky1pY2ZNUgGYngPoTNhXFullrtQaPzEJQx
UurGAIf8PskewJzPJfKQ3ffNgq1F6J1WHHkGZhJxjYoQAVIe04hsT10KHJvwX2P7
6RMSWZa245H3MH7gdNySVSyCQhrMsnHW9NBbZCIFnr1qaxCAV8Tcjan4R3aZ+0bF
yakTwk5fKCgxdWBf22iUeqGtDt2gnb1WC2XP1O5myAy+/z6BsCDEVek2+RhfW2uw
1ecAcOmarBr2oDxXOyz/ri9X+0acd/Wb+E+YlRJH6EwSN//mzKUuobuCQ0RQR5p/
4Cw7i06QdAL7Vj+m30K2UpbZSO6E3lAMdB7BvUFbm1EV8ur8r+egutKPmv8IGebc
l3IdMo6K7td/u44hCf+rO1u7tVxeibhZ7LrA4Vy1FBBgQb8QJkVln5yIMj8bOiXt
a2QxE0nXssrvqrSpDVpBFrvPCPgaggKG1n3EjCwtWnaCfyB3+DcWuOIcV+EeaKhj
DuYh4mvnbLowDrT68xA5IfGNWLNxNZjHBAg1pSRmQlTHSl55pZWFd8FpT4BkK/8X
WAzIhC12r2csyrC5XAHO2R4OpiFPv3hB2rTyaKGZhETTXJcgsr3K30O3KSbmTT5P
+v7J8p5ANMIAsM4I1rOda8IgoYqIXJA9pkFjjpfQg6/5SwLRC+F+zmCbbdGmtckd
j685bF0paBOo1AH/X9VKGXSX7O1UC2nYqljHwvzJOj0Q5m75M6iCFm/lraIn3EgV
le0A/HiTD1tvLZU9mJ3fKoXKU5eFWcgN532PCcfoDr5S6F6qnjroOS7MufY8oM1I
QXIFcuOxtrQ5A34Qra1AH8StmzeOPTm3e+zIVD91PIIdd4Ee6X8QYHU3IL6Qg/G4
6LY5MufbSjkr6FG4ahvzxP7EmMgcfiS3lvBsZARAw0xR8o4XijnUFp6AoPXIX17d
ynyzUqVG+P5zcLEeS6zeePPtoTrqp7RMAdyv76NlkcP8HVEf4KFDMRbKje/vY6v5
XqPxzVt1XLFsrpl93/9+mqM8i1rqi2aLHlS4CJOnuhYYizi+MAk0lFy68u581DGT
DNLmFsJRKdGd7NfcIBrw0yClrAFpz/4aX5JXOrZHLo6Z7iBh0BkBash2R7AA3wgd
DhjvMQoW4BFfT25dGmEywoOgJY5jBntrMdjLxVFCEr9F0tYj/YuJvLu8S4HjmVp5
1yM96dGzq5X58meGdanwGszaaNITCNFV2rcgJ0xRb32ipOWOk7rSUHqGBRU1zdLd
KjZJtuH7IUR9js7h8f8AAAAAAAAAAAAAAAAAAAAAAAAACQ0QFhwk
=BTYR
-----END PGP PUBLIC KEY BLOCK-----
